FUJI.cube
TITLE "Generated by Resolve"
LUT_3D_SIZE 65
0.0305333 0.0366217 0.0354162
0.0305333 0.0366217 0.0354162
0.0306096 0.0370794 0.0355993
0.0308843 0.0384985 0.036759
0.03122 0.0397803 0.0378576
0.0316625 0.0408179 0.0386511
0.0320439 0.0418555 0.0394903
0.0312657 0.0428931 0.0402991
0.0297246 0.0439765 0.0410925
0.0278782 0.0450904 0.0420081
0.0266117 0.0462196 0.0427863
0.0272374 0.0474403 0.0437171
0.027985 0.0483558 0.0444343
0.03299 0.0494698 0.045243
0.0428779 0.0508583 0.045716
0.0531777 0.0522011 0.0461738
0.06215 0.05449 0.0464332
0.0711681 0.0567178 0.0466316
0.0792401 0.059205 0.0469825
0.0866712 0.0619669 0.0474861
0.0955062 0.0643931 0.0476997
0.108095 0.0662089 0.0473487
0.120912 0.06804 0.0469825
0.137606 0.0692607 0.0454719
0.155306 0.0704814 0.0437934
0.17261 0.0712596 0.041413
0.189578 0.071809 0.0383001
0.206073 0.0720531 0.035111
0.221378 0.0715953 0.0272221
0.236835 0.0710002 0.0189364
0.251698 0.0705882 0.0111086
0.267704 0.0699321 0.00552377
0.282933 0.068986 0.000854505
0.298848 0.0672465 1.5259e-05
0.314031 0.0647746 0
0.329015 0.0622721 0
0.343206 0.0573281 0
0.35758 0.0521553 0
0.370932 0.04448 0
0.383993 0.032166 0
0.396338 0.0164797 0
0.409277 0.00299077 0
0.42237 0.00198367 0
0.435615 0.000946059 0
0.448234 0 0
0.461814 4.57771e-05 0
0.474784 7.62951e-05 0
0.48835 0.000106813 0
0.50045 7.62951e-05 0
0.513008 3.0518e-05 0
0.525399 0 0
0.536507 0 0
0.54757 0 0
0.558633 0 0
0.568109 0 0
0.577585 0 0
0.587732 0 0
0.596353 0 0
0.60528 0 0
0.614954 0 0
0.623728 0 0
0.633051 0 0
0.641459 0 0
0.650339 0 0
0.659007 0 0
0.0307927 0.0397192 0.0374914
0.0310826 0.0413519 0.0385748
0.0315251 0.0426642 0.0395972
0.0319982 0.0438849 0.0403906
0.0312352 0.044831 0.0410773
0.0299229 0.0458991 0.0418097
0.0285649 0.0468147 0.0423743
0.0270695 0.0475471 0.0432136
0.0268101 0.0483406 0.0439307
0.0275273 0.0492103 0.0446784
0.0282902 0.0500496 0.0454108
0.032517 0.0511025 0.046067
0.0413519 0.0523079 0.0465095
0.0507057 0.0535897 0.047013
0.0591135 0.055375 0.0473182
0.0675364 0.0575113 0.0475471
0.0759289 0.0595865 0.047715
0.0830396 0.06215 0.0480964
0.0902419 0.0647593 0.0484779
0.0999466 0.0669108 0.0484321
0.112032 0.0687877 0.0480354
0.123705 0.070573 0.0476234
0.140475 0.071931 0.0460975
0.156573 0.0731365 0.0446174
0.173617 0.0741283 0.042359
0.189258 0.0747692 0.0393683
0.205249 0.0753643 0.0363165
0.220722 0.0753338 0.0284886
0.23595 0.075227 0.0197147
0.250538 0.0750286 0.0114443
0.265934 0.0747845 0.00630198
0.280766 0.0745251 0.00222782
0.296132 0.0735332 1.5259e-05
0.311467 0.0723278 1.5259e-05
0.326055 0.0705272 0
0.340566 0.0683299 0
0.354467 0.0662242 0
0.368704 0.0620279 0
0.382208 0.0561837 0
0.394415 0.0468299 0
0.407126 0.0357824 0
0.418357 0.0209354 0
0.429236 0.0113985 0
0.439658 0.00140383 0
0.45182 1.5259e-05 0
0.464164 4.57771e-05 0
0.477272 7.62951e-05 0
0.489967 0.000106813 0
0.50222 7.62951e-05 0
0.514916 3.0518e-05 0
0.526604 0 0
0.537148 0 0
0.548592 0 0
0.559396 0 0
0.568658 0 0
0.578134 0 0
0.587915 0 0
0.596551 0 0
0.605936 0 0
0.61471 0 0
0.624048 0 0
0.633463 0 0
0.641657 0 0
0.650736 0 0
0.659113 0 0
0.0314031 0.0452583 0.0407721
0.0317845 0.0465248 0.0415656
0.031693 0.0474556 0.0422675
0.0301061 0.048249 0.0429999
0.0284581 0.0489204 0.0438087
0.027039 0.0495918 0.0444648
0.026978 0.050309 0.0450446
0.0276493 0.0510109 0.0456855
0.028397 0.0517891 0.0463417
0.0298772 0.0525978 0.0468452
0.0380865 0.0537575 0.0473182
0.0462806 0.0548714 0.047776
0.0552071 0.0561532 0.0482643
0.0631418 0.0581064 0.0484321
0.0711528 0.0601358 0.0486305
0.0787366 0.0622721 0.0488289
0.0857862 0.0649882 0.049134
0.0925612 0.0675669 0.0493935
0.102419 0.06981 0.0492256
0.113588 0.0717632 0.0487984
0.125231 0.0737621 0.0483406
0.140795 0.0750439 0.0468452
0.156847 0.0764019 0.0452888
0.172534 0.0774701 0.0434119
0.188464 0.0783093 0.0402533
0.203449 0.0789502 0.0365759
0.218753 0.0793774 0.0301976
0.23331 0.0793927 0.0213474
0.247913 0.0795148 0.0125582
0.262684 0.0794995 0.00698863
0.277974 0.0794232 0.00332647
0.292012 0.079469 0.000366217
0.307744 0.0785382 1.5259e-05
0.322057 0.0777752 0
0.3364 0.0767987 0
0.350576 0.0745251 0
0.36527 0.0719158 0
0.379141 0.0684367 0
0.392401 0.0631876 0
0.404791 0.057557 0
0.41648 0.0518044 0
0.42768 0.0399023 0
0.438041 0.0281529 0
0.4486 0.0179446 0
0.458762 0.00782788 0
0.469322 0.00259403 0
0.479316 9.15541e-05 0
0.491585 0.000106813 0
0.50399 6.10361e-05 0
0.515953 3.0518e-05 0
0.527886 0 0
0.538186 0 0
0.549371 0 0
0.560037 0 0
0.569192 0 0
0.578347 0 0
0.588388 0 0
0.597025 0 0
0.605753 0 0
0.615366 0 0
0.62446 0 0
0.633539 0 0
0.642222 0 0
0.651087 0 0
0.659342 0 0
0.0323339 0.0490883 0.0433356
0.0311437 0.0500038 0.0441749
0.0304417 0.0510262 0.0448157
0.029099 0.0517739 0.0452125
0.0276188 0.0524453 0.0456703
0.0274357 0.0528878 0.0464179
0.0282444 0.0535134 0.0470741
0.0290379 0.0542306 0.0475624
0.0325628 0.0552071 0.0480507
0.0402533 0.0565347 0.0485542
0.0483253 0.0577859 0.0489967
0.0569314 0.0593271 0.0493935
0.0644846 0.0613413 0.0495308
0.0722972 0.0635233 0.0497292
0.0798047 0.0656901 0.0498512
0.0866255 0.0683299 0.0500801
0.0934005 0.0709239 0.0502785
0.102556 0.0731212 0.0500954
0.114153 0.0751812 0.0495918
0.125307 0.0770428 0.049073
0.139986 0.0785992 0.0476539
0.155169 0.0797742 0.0457771
0.170733 0.0810712 0.0438239
0.185885 0.0818647 0.0404822
0.20119 0.0827344 0.036759
0.215747 0.0833295 0.0321508
0.230274 0.0838026 0.0231479
0.244694 0.0839399 0.0143587
0.259297 0.0844129 0.00679026
0.273625 0.0847028 0.0037995
0.288609 0.0847791 0.00129702
0.302708 0.0847791 1.5259e-05
0.317769 0.0842298 1.5259e-05
0.332815 0.0832837 0
0.346349 0.0821698 0
0.361288 0.0800793 0
0.374975 0.0775921 0
0.388952 0.0746624 0
0.40145 0.0703899 0
0.414298 0.0652781 0
0.426154 0.0598611 0
0.436469 0.0520485 0
0.447135 0.041001 0
0.456504 0.0305943 0
0.466957 0.0182803 0
0.477058 0.00866712 0
0.487449 0.00231937 0
0.497261 7.62951e-05 0
0.506508 6.10361e-05 0
0.517281 3.0518e-05 0
0.528664 0 0
0.539208 0 0
0.549889 0 0
0.56025 0 0
0.569726 0 0
0.578775 0 0
0.588479 0 0
0.597116 0 0
0.606516 0 0
0.615457 0 0
0.624552 0 0
0.634089 0 0
0.642634 0 0
0.651255 0 0
0.659632 0 0
0.0320287 0.0524758 0.0455329
0.0299992 0.0532998 0.0462501
0.0283818 0.0546426 0.0467842
0.025864 0.0557107 0.0472725
0.023743 0.0565652 0.0475776
0.0239109 0.0575723 0.0479133
0.0246586 0.0583047 0.0485389
0.0282597 0.0588083 0.0493172
0.0388037 0.059968 0.0497292
0.0481422 0.0611276 0.0500954
0.0574197 0.062623 0.0504616
0.0647746 0.0646525 0.0506294
0.0723278 0.0666361 0.0507515
0.0799115 0.0688182 0.0508888
0.0866255 0.0712596 0.0509804
0.0934768 0.0737926 0.0510719
0.101442 0.0760662 0.0509651
0.112764 0.078172 0.0503548
0.124041 0.0801862 0.0495918
0.137163 0.0817884 0.048188
0.152346 0.0831617 0.0461433
0.167361 0.0842908 0.0439918
0.182757 0.0853285 0.0410468
0.197131 0.0861677 0.037171
0.212161 0.0869917 0.0331273
0.22652 0.087541 0.0253452
0.240574 0.0881666 0.0167086
0.255116 0.0887465 0.00773632
0.269261 0.0893263 0.00401312
0.284092 0.0899214 0.00184634
0.29807 0.0901808 0.00030518
0.312764 0.0901808 1.5259e-05
0.326772 0.0899977 1.5259e-05
0.341344 0.0892195 0
0.356573 0.0877394 0
0.370703 0.0857099 0
0.384863 0.0839399 0
0.397528 0.0810101 0
0.410651 0.0771649 0
0.422202 0.0734112 0
0.434562 0.0681926 0
0.445426 0.0617685 0
0.455344 0.054078 0
0.465507 0.0448157 0
0.475029 0.0334478 0
0.485023 0.0198062 0
0.495079 0.00531014 0
0.504311 3.0518e-05 0
0.514336 6.10361e-05 0
0.523537 6.10361e-05 0
0.532555 3.0518e-05 0
0.540703 0 0
0.549889 0 0
0.560891 0 0
0.569833 0 0
0.578988 0 0
0.588769 0 0
0.597681 0 0
0.606699 0 0
0.615457 0 0
0.625132 0 0
0.634363 0 0
0.642695 0 0
0.651759 0 0
0.660029 0 0
0.0293889 0.0568093 0.0473182
0.0257267 0.0577249 0.0478676
0.0222171 0.0587167 0.0484016
0.0204776 0.0599832 0.0488441
0.019852 0.0609903 0.0492866
0.0203708 0.0618753 0.0496376
0.0209812 0.0626535 0.0498054
0.0226291 0.0634928 0.0502174
0.0390173 0.0646372 0.050782
0.0546731 0.0655528 0.0514839
0.0637369 0.0675364 0.0516518
0.0712291 0.0694743 0.0517586
0.0788281 0.0714427 0.0517891
0.0857099 0.0740826 0.0517891
0.0923323 0.0766003 0.051606
0.0993515 0.0793011 0.0513924
0.110521 0.0814221 0.0505226
0.121874 0.0836652 0.0497444
0.133654 0.0858015 0.0487221
0.148013 0.0872053 0.046479
0.163073 0.0886244 0.0442512
0.177691 0.089601 0.041886
0.192493 0.0907301 0.0376593
0.207248 0.0917067 0.0332189
0.221759 0.0922713 0.0277867
0.23595 0.0930953 0.0193027
0.249485 0.0937209 0.0107881
0.26363 0.0944533 0.0037995
0.278325 0.0944686 0.00224308
0.292592 0.095079 0.000839246
0.307362 0.0954299 1.5259e-05
0.321645 0.0953231 1.5259e-05
0.336095 0.0950942 0
0.350164 0.0944839 0
0.364996 0.0933089 0
0.3794 0.0917372 0
0.393057 0.0899214 0
0.4065 0.0875105 0
0.418784 0.084062 0
0.431128 0.0805676 0
0.442741 0.0769665 0
0.452995 0.0716259 0
0.4636 0.0651102 0
0.473259 0.0591287 0
0.483131 0.0480354 0
0.493034 0.0352483 0
0.502434 0.0221866 0
0.512184 0.0111543 0
0.521248 0.00390631 0
0.5308 0.000366217 0
0.540215 9.15541e-05 0
0.54786 4.57771e-05 0
0.556039 1.5259e-05 0
0.563333 0 0
0.56994 0 0
0.579965 0 0
0.588861 0 0
0.597879 0 0
0.607263 0 0
0.615946 0 0
0.625299 0 0
0.63444 0 0
0.643259 0 0
0.651987 0 0
0.660243 0 0
0.026154 0.0610208 0.0487526
0.0206302 0.0618448 0.0493477
0.017258 0.0627298 0.0499428
0.0157168 0.0644694 0.0503395
0.0154574 0.0662242 0.0507515
0.0159762 0.0675059 0.0509041
0.016556 0.0687877 0.0510719
0.0199893 0.070222 0.0511482
0.0329595 0.071809 0.0511635
0.051667 0.0727092 0.0514534
0.0655528 0.0744182 0.0518654
0.0755016 0.0763409 0.0520333
0.083299 0.0787366 0.0519417
0.0906081 0.0813611 0.0517433
0.0975662 0.0838331 0.0513466
0.106981 0.0862745 0.0506447
0.117876 0.0884413 0.0496986
0.12903 0.0905318 0.0487526
0.142641 0.0922866 0.0468452
0.15697 0.0936446 0.0445563
0.171847 0.09514 0.042237
0.187182 0.0963302 0.0382849
0.201541 0.0972457 0.0333867
0.215778 0.0983902 0.0280919
0.229908 0.0991379 0.0209201
0.244999 0.100023 0.0126192
0.258747 0.101137 0.00517281
0.272587 0.101915 0.00184634
0.287373 0.102525 0.000915541
0.30103 0.103014 0.000228885
0.315267 0.103334 1.5259e-05
0.330541 0.102708 0
0.344518 0.101793 0
0.359258 0.10103 0
0.373053 0.0992752 0
0.38732 0.0976883 0
0.401282 0.0962539 0
0.414054 0.0937667 0
0.426596 0.0911574 0
0.438926 0.0881208 0
0.450233 0.0846571 0
0.460838 0.0809186 0
0.470924 0.0755016 0
0.481575 0.0693217 0
0.490852 0.0609598 0
0.500191 0.0504158 0
0.509926 0.0370336 0
0.519142 0.0237125 0
0.528557 0.0118868 0
0.538293 0.00341802 0
0.547082 9.15541e-05 0
0.555215 9.15541e-05 0
0.563043 4.57771e-05 0
0.57113 0 0
0.577676 0 0
0.583841 0 0
0.590356 0 0
0.598535 0 0
0.607462 0 0
0.616205 0 0
0.62562 0 0
0.634714 0 0
0.643534 0 0
0.652155 0 0
0.6607 0 0
0.0190433 0.0671397 0.0502937
0.0129091 0.068452 0.0509041
0.0117952 0.0695964 0.0514382
0.0113069 0.0713817 0.0519112
0.0093843 0.07364 0.0521706
0.0103151 0.074876 0.0521859
0.0115053 0.0760967 0.0522774
0.0196078 0.0775006 0.0520943
0.0307012 0.0790723 0.0517433
0.0444038 0.0806744 0.0514687
0.0604868 0.0824598 0.0513313
0.0750591 0.0842145 0.0514382
0.086717 0.0863966 0.0516213
0.0949264 0.0888991 0.0514076
0.102281 0.0911879 0.0508888
0.11342 0.0935378 0.0497749
0.124788 0.0957351 0.0486763
0.136675 0.0975662 0.0472725
0.151583 0.0992142 0.0448615
0.166369 0.100603 0.0422675
0.180896 0.101946 0.0391394
0.196475 0.103136 0.0336004
0.210315 0.104204 0.0277409
0.22443 0.105425 0.0218051
0.238743 0.106874 0.0141756
0.252964 0.10782 0.00741588
0.267323 0.109102 0.00134279
0.281758 0.11017 0.000595102
0.295964 0.110857 0.000198367
0.31043 0.111589 3.0518e-05
0.324376 0.111589 0
0.339559 0.111086 0
0.353582 0.110903 0
0.36791 0.109819 0
0.382361 0.108522 0
0.396094 0.10663 0
0.409674 0.105364 0
0.422446 0.102907 0
0.434394 0.0999008 0
0.447456 0.0968185 0
0.458534 0.0936141 0
0.468574 0.0898756 0
0.479133 0.0865949 0
0.489387 0.0806134 0
0.499123 0.0734722 0
0.508705 0.0661326 0
0.51812 0.0568856 0
0.527474 0.0416724 0
0.53666 0.0254978 0
0.545495 0.00910964 0
0.554589 6.10361e-05 0
0.5626 0.000122072 0
0.571176 0.00015259 0
0.579248 0.000122072 0
0.585458 4.57771e-05 0
0.592142 0 0
0.598825 0 0
0.604273 0 0
0.610147 0 0
0.616938 0 0
0.62562 0 0
0.634852 0 0
0.643748 0 0
0.652613 0 0
0.66099 0 0
0.0101472 0.0748455 0.0518196
0.00480659 0.0758526 0.0523995
0.00593576 0.0771496 0.0528572
0.00714122 0.0785382 0.0532387
0.0049897 0.0805829 0.053315
0.00512703 0.0822919 0.053315
0.00698863 0.0835737 0.0532692
0.0176089 0.0852369 0.0528878
0.0292058 0.0866865 0.0523537
0.0429389 0.088304 0.0517891
0.0544137 0.0903639 0.0511788
0.0684062 0.0924086 0.0505531
0.0845655 0.0945144 0.0504005
0.0961013 0.0968795 0.0503548
0.107149 0.0988327 0.0497597
0.119921 0.10103 0.0485084
0.131655 0.103258 0.0472114
0.14519 0.104845 0.0451514
0.160189 0.106477 0.0421912
0.174838 0.108034 0.0393683
0.189227 0.109285 0.0346075
0.204456 0.110567 0.0281224
0.218738 0.111849 0.0214847
0.23299 0.113176 0.0139467
0.247532 0.114763 0.00807202
0.262013 0.116167 0.00320439
0.276371 0.117494 0.000183108
0.290562 0.118761 3.0518e-05
0.304463 0.119539 1.5259e-05
0.31928 0.120394 0
0.33402 0.120439 0
0.348272 0.119936 0
0.362722 0.119799 0
0.376516 0.119188 0
0.390616 0.117937 0
0.405005 0.116838 0
0.418509 0.115068 0
0.430549 0.113405 0
0.443458 0.110903 0
0.455467 0.108446 0
0.466529 0.105333 0
0.477287 0.102068 0
0.487282 0.0986496 0
0.497719 0.0935073 0
0.507286 0.088304 0
0.516915 0.0818799 0
0.526757 0.0756542 0
0.53608 0.0632181 0
0.544961 0.0508583 0
0.554253 0.0386511 0
0.562493 0.0231632 0
0.570779 0.0126955 0
0.579446 0.00608835 0
0.586816 0.000381476 0
0.593942 0.000137331 0
0.601221 4.57771e-05 0
0.607446 0 0
0.613138 0 0
0.619394 0 0
0.624491 0 0
0.629557 0 0
0.635126 0 0
0.644083 0 0
0.65301 0 0
0.661204 0 0
0.0033875 0.0825971 0.0531777
0.000320439 0.08365 0.0536049
0.00271611 0.0850538 0.0539254
0.00469978 0.086244 0.0541543
0.00457771 0.088014 0.0543069
0.00347906 0.0901656 0.0543526
0.00390631 0.0916457 0.0542153
0.0138094 0.0930953 0.0536507
0.0267033 0.0947433 0.0529488
0.038117 0.0962692 0.0521859
0.049134 0.0981918 0.0513161
0.061799 0.100343 0.0501411
0.0786297 0.102678 0.0490425
0.091783 0.105287 0.0483558
0.105806 0.107454 0.0478065
0.123598 0.109316 0.04654
0.137804 0.111299 0.0452583
0.152941 0.112779 0.0421759
0.167803 0.114427 0.0390173
0.182879 0.115953 0.0353704
0.197391 0.11722 0.0289464
0.212818 0.118669 0.0215457
0.227543 0.120104 0.0132906
0.241398 0.121691 0.0080415
0.256153 0.123552 0.00433356
0.270405 0.125414 0.0010071
0.284749 0.126574 3.0518e-05
0.299931 0.12784 1.5259e-05
0.314382 0.129091 0
0.328237 0.129534 0
0.342641 0.129946 0
0.357382 0.129946 0
0.371939 0.129244 0
0.385885 0.128756 0
0.399878 0.128344 0
0.413199 0.127092 0
0.426993 0.125505 0
0.439368 0.123888 0
0.451652 0.122774 0
0.464134 0.12047 0
0.474693 0.117372 0
0.485466 0.114946 0
0.495979 0.112306 0
0.505714 0.108034 0
0.516014 0.102678 0
0.525979 0.0985428 0
0.535134 0.0929427 0
0.544656 0.0835126 0
0.553979 0.0754711 0
0.562341 0.0658579 0
0.570764 0.0524758 0
0.579416 0.0368048 0
0.587243 0.0227512 0
0.595148 0.0149233 0
0.602228 0.00920119 0
0.609323 0.00415045 0
0.616236 0.000381476 0
0.622446 0 0
0.628809 0 0
0.63415 0 0
0.639048 0 0
0.644205 0 0
0.648249 0 0
0.653178 0 0
0.661784 0 0
0.00169375 0.090547 0.0541848
0.000396735 0.0917983 0.054551
0.00158694 0.0931411 0.0548104
0.00248722 0.0942855 0.0549172
0.00598154 0.0958114 0.0549325
0.00204471 0.0976883 0.0550088
0.00172427 0.0995041 0.055024
0.0112459 0.100938 0.0542
0.0218509 0.102571 0.0533608
0.0327611 0.104204 0.0524453
0.0465553 0.106157 0.051133
0.0597696 0.108049 0.0498665
0.07393 0.110246 0.0485237
0.0867781 0.112764 0.0470588
0.0996567 0.115328 0.0458076
0.119066 0.117723 0.0439612
0.138827 0.119692 0.0420691
0.158312 0.120912 0.0384375
0.175448 0.122377 0.0347601
0.19086 0.123903 0.0301823
0.205844 0.125673 0.0222782
0.220111 0.12697 0.0147097
0.234836 0.12874 0.00694286
0.25008 0.130831 0.00358587
0.26453 0.132494 0.00177005
0.279316 0.134554 7.62951e-05
0.294026 0.136126 1.5259e-05
0.308049 0.137407 0
0.322896 0.138582 0
0.337865 0.139147 0
0.351919 0.139544 0
0.366247 0.139742 0
0.380591 0.139803 0
0.394751 0.138964 0
0.409003 0.138628 0
0.422629 0.138247 0
0.435401 0.136431 0
0.448569 0.135302 0
0.460853 0.134249 0
0.472129 0.132799 0
0.483299 0.130144 0
0.493965 0.127459 0
0.504265 0.125643 0
0.514336 0.122545 0
0.524926 0.118227 0
0.534463 0.114 0
0.544198 0.110063 0
0.553368 0.104051 0
0.562814 0.0959182 0
0.572122 0.0885939 0
0.579965 0.0779889 0
0.588144 0.0639963 0
0.596155 0.0475929 0
0.603128 0.0318151 0
0.610346 0.0210269 0
0.617899 0.0146487 0
0.624537 0.0103456 0
0.631113 0.0062562 0
0.638117 0.00314336 0
0.643519 0 0
0.649439 0 0
0.65478 0 0
0.658747 0 0
0.662654 0 0
0.66598 0 0
4.57771e-05 0.0984512 0.0550546
0 0.0997482 0.055436
3.0518e-05 0.101091 0.0554208
6.10361e-05 0.102266 0.0554818
0.0084535 0.1037 0.0551308
0.0118257 0.105303 0.0549783
0.00686656 0.10695 0.0550088
0.0096437 0.1084 0.0545052
0.0195315 0.110109 0.0536049
0.0312657 0.111711 0.0524758
0.0448157 0.113634 0.0512245
0.0591287 0.115572 0.0496529
0.0750286 0.117617 0.047837
0.0855573 0.119921 0.0459602
0.0951858 0.122576 0.0445563
0.108995 0.125444 0.0426032
0.130968 0.127718 0.03888
0.154742 0.129473 0.0336919
0.176898 0.130617 0.029099
0.196689 0.132113 0.0230106
0.213001 0.133913 0.0151827
0.228031 0.135378 0.00769055
0.24271 0.137423 0.00294499
0.257664 0.139834 0.00190738
0.272511 0.14168 0.000869764
0.287785 0.143862 0
0.302922 0.145434 0
0.316838 0.146746 0
0.331167 0.14847 0
0.346349 0.149035 0
0.360906 0.149599 0
0.374884 0.149783 0
0.389258 0.150011 0
0.403983 0.149813 0
0.417365 0.149294 0
0.431449 0.148989 0
0.444251 0.148455 0
0.456641 0.146944 0
0.469581 0.145724 0
0.481209 0.144976 0
0.491325 0.143374 0
0.502571 0.140841 0
0.513497 0.138628 0
0.523003 0.136385 0
0.533333 0.132998 0
0.543542 0.129381 0
0.552987 0.125628 0
0.562448 0.122057 0
0.572152 0.115602 0
0.580911 0.110536 0
0.589502 0.103761 0
0.597925 0.0944991 0
0.6056 0.080766 0
0.613413 0.0709697 0
0.62031 0.0571603 0
0.626871 0.0411231 0
0.633692 0.0295567 0
0.64004 0.016556 0
0.646647 0.0117647 0
0.652766 0.00766003 0
0.659205 0.00469978 0
0.664637 0.00175479 0
0.669596 0 0
0.674022 0 0
0.677073 0 0
0 0.105852 0.0555581
1.5259e-05 0.107195 0.0556954
3.0518e-05 0.108431 0.0555276
4.57771e-05 0.109743 0.0555581
0.0115206 0.111238 0.0549935
0.0186465 0.112718 0.054612
0.0167086 0.114061 0.0545205
0.0125887 0.115663 0.0545205
0.0178531 0.117342 0.0536965
0.0283665 0.119036 0.0525521
0.0424964 0.120928 0.0509957
0.0587167 0.123064 0.0492866
0.0740368 0.125002 0.0475319
0.0856489 0.127413 0.0458991
0.0943923 0.130144 0.0443732
0.104417 0.132753 0.0426337
0.121599 0.135653 0.0395819
0.14342 0.138155 0.0358129
0.171145 0.139391 0.0258793
0.195941 0.140734 0.0175784
0.217166 0.14255 0.0104982
0.234852 0.14435 0.00411994
0.250782 0.146471 0.00158694
0.2663 0.149004 0.000976577
0.281514 0.151293 0.000350958
0.295933 0.153079 0
0.310796 0.15494 0
0.326085 0.156603 0
0.340154 0.157885 0
0.354665 0.158602 0
0.369345 0.159319 0
0.383749 0.159899 0
0.398138 0.160006 0
0.412085 0.160143 0
0.426291 0.160067 0
0.43975 0.159884 0
0.452598 0.159548 0
0.46511 0.158938 0
0.477714 0.157656 0
0.489616 0.156802 0
0.500175 0.155734 0
0.510567 0.153735 0
0.521935 0.151675 0
0.532174 0.149706 0
0.54139 0.147387 0
0.552438 0.143603 0
0.562356 0.141238 0
0.571283 0.136965 0
0.58114 0.132876 0
0.591104 0.127626 0
0.598856 0.123079 0
0.607141 0.117754 0
0.615808 0.111696 0
0.623148 0.104646 0
0.629602 0.0963607 0
0.637079 0.08365 0
0.643626 0.0702373 0
0.649653 0.0559701 0
0.656504 0.0436866 0
0.662257 0.0296635 0
0.667994 0.0127565 0
0.673777 0.00712596 0
0.679164 0.00325017 0
0.684001 0.000915541 0
0.68838 0 0
0 0.112978 0.0558022
0 0.114199 0.0559091
1.5259e-05 0.115679 0.0558328
0.000381476 0.117037 0.0555428
0.0120851 0.118669 0.0547646
0.0210269 0.120012 0.0541848
0.0244755 0.121355 0.0538033
0.0197452 0.122957 0.0537118
0.0183566 0.124895 0.0532998
0.025452 0.126726 0.0519417
0.0390784 0.128756 0.0501259
0.0552834 0.131029 0.0480507
0.073167 0.13344 0.0464485
0.084535 0.136034 0.0449531
0.0938125 0.138628 0.0431983
0.103716 0.141192 0.0413672
0.115831 0.144076 0.0387579
0.134417 0.146838 0.0348058
0.158785 0.148959 0.0278172
0.187472 0.150164 0.016556
0.214481 0.151736 0.00869764
0.237217 0.153735 0.00268559
0.25655 0.155749 0.000396735
0.273548 0.158068 0.000274662
0.289326 0.16051 9.15541e-05
0.304707 0.162676 1.5259e-05
0.318807 0.164309 1.5259e-05
0.333837 0.165988 0
0.348699 0.167575 0
0.363165 0.168139 0
0.37792 0.169207 0
0.392126 0.170001 0
0.405921 0.17023 0
0.420539 0.170443 0
0.43473 0.170596 0
0.448234 0.170626 0
0.460975 0.170047 0
0.473365 0.170077 0
0.486442 0.169482 0
0.49778 0.168124 0
0.508522 0.167117 0
0.519554 0.166323 0
0.530297 0.164538 0
0.54049 0.162448 0
0.550774 0.160769 0
0.560891 0.158556 0
0.570977 0.155505 0
0.580682 0.152605 0
0.590555 0.149142 0
0.600214 0.144259 0
0.608774 0.14023 0
0.617365 0.136233 0
0.625635 0.130449 0
0.633173 0.124651 0
0.640314 0.118364 0
