FUJI.cube
TITLE "Generated by Resolve"
LUT_3D_SIZE 5
0.0305333 0.0366217 0.0354162
0.06215 0.05449 0.0464332
0.282933 0.068986 0.000854505
0.50045 7.62951e-05 0
0.659007 0 0
0 0.136202 0.0545052
0.113985 0.171893 0.0281529
0.429282 0.203189 0
0.618585 0.19086 0
0.728969 0.097261 0
0 0.283177 1.5259e-05
0.221393 0.360082 0
0.413825 0.423285 0
0.728893 0.41973 0
0.867948 0.394949 0
0 0.419791 0
0.155596 0.538445 0
0.547616 0.634638 0
0.739727 0.68867 0
0.989807 0.660334 0
0 0.515953 0.0683909
0 0.570108 0.0131075
0.609522 0.768322 3.0518e-05
0.905837 0.841962 0
1 0.859113 0
0.00805676 0.0560311 0.0945602
0.121584 0.0728008 0.136004
0.35816 0.0247196 0.13843
0.573068 0 0.127596
0.715114 0 0.117113
0 0.173678 0.194171
0.196124 0.210224 0.194751
0.470619 0.220569 0.161242
0.656458 0.177508 0.0927291
0.76051 0.0794385 0
0 0.347814 0.226078
0.194171 0.410285 0.199054
0.475715 0.454719 0.105531
0.764675 0.438331 0
0.893858 0.419471 0
0 0.467613 0.186679
0.0563363 0.569299 0.0808728
0.622446 0.673625 0.000228885
0.771237 0.694041 0
0.997574 0.67277 0
0 0.520836 0.0910201
0 0.570336 0.0437324
0.608515 0.768505 7.62951e-05
0.921019 0.84538 0
0.999985 0.858763 0
0 0.00106813 0.298802
0.165789 0.0133364 0.328252
0.402594 0 0.336934
0.599252 0 0.346044
0.737667 0 0.378653
0 0.205951 0.395529
0.176867 0.235813 0.414221
0.489754 0.247593 0.411734
0.69308 0.209369 0.397269
0.79736 0.135088 0.405936
0 0.405478 0.485542
0.0653239 0.472175 0.483314
0.549981 0.510033 0.473457
0.776761 0.501396 0.452186
0.890745 0.468925 0.437263
0 0.55552 0.538659
0 0.659403 0.543725
0.568856 0.741344 0.519356
0.799435 0.772702 0.474693
0.980911 0.754559 0.463935
0 0.63978 0.634913
0 0.677958 0.646296
0.511208 0.836957 0.629587
0.859663 0.895933 0.622171
1 0.859419 0
0 0 0.442496
0.160693 0 0.474342
0.419913 0 0.502632
0.621241 0 0.522866
0.762341 0 0.564187
0 0.160266 0.550713
0.157855 0.217182 0.582437
0.481712 0.21828 0.597269
0.687312 0.155764 0.59559
0.798733 0 0.612634
0 0.422629 0.660914
0 0.492226 0.683116
0.52694 0.532784 0.691951
0.780087 0.536324 0.700359
0.908293 0.542535 0.732265
0 0.590021 0.736751
0 0.6869 0.765454
0.511635 0.781125 0.763714
0.841596 0.823362 0.778668
0.979934 0.833753 0.796811
0 0.671153 0.809171
0 0.672724 0.81033
0.437522 0.863249 0.835645
0.83769 0.936446 0.862303
0.995148 0.959701 0.838788
0 0 0.536507
0.100954 0 0.572183
0.418204 0 0.616663
0.637003 0 0.647745
0.785031 0 0.683986
0 0 0.589181
0.129229 0.0113832 0.624613
0.440497 3.0518e-05 0.659403
0.656733 0 0.669703
0.788144 0 0.686992
0 0.422126 0.756039
0 0.445655 0.780514
0.487221 0.509071 0.801846
0.76379 0.512749 0.825574
0.902892 0.517754 0.844984
0 0.605219 0.818402
0 0.607385 0.818967
0.0864424 0.766018 0.857649
0.819577 0.840375 0.905501
0.981338 0.864851 0.924865
0 0.67715 0.85156
0 0.678096 0.852003
0.316075 0.856489 0.882811
0.809476 0.943221 0.924773
0.999359 0.978668 0.945296
