FUJI.cube
TITLE "Generated by Resolve"
LUT_3D_SIZE 9
0.0305333 0.0366217 0.0354162
0.0297246 0.0439765 0.0410925
0.06215 0.05449 0.0464332
0.155306 0.0704814 0.0437934
0.282933 0.068986 0.000854505
0.396338 0.0164797 0
0.50045 7.62951e-05 0
0.587732 0 0
0.659007 0 0
0.0101472 0.0748455 0.0518196
0.0292058 0.0866865 0.0523537
0.131655 0.103258 0.0472114
0.247532 0.114763 0.00807202
0.362722 0.119799 0
0.466529 0.105333 0
0.544961 0.0508583 0
0.607446 0 0
0.661204 0 0
0 0.136202 0.0545052
0.0451514 0.150164 0.0458991
0.113985 0.171893 0.0281529
0.293828 0.193927 1.5259e-05
0.429282 0.203189 0
0.532189 0.204089 0
0.618585 0.19086 0
0.685039 0.164157 0
0.728969 0.097261 0
0 0.206149 0.0402533
0.0129702 0.22678 0.00370794
0.0824903 0.249699 0
0.254994 0.287434 0
0.41857 0.313176 0
0.585855 0.309926 0
0.680446 0.304524 0
0.754147 0.290455 0
0.809201 0.267735 0
0 0.283177 1.5259e-05
0.000183108 0.315099 4.57771e-05
0.221393 0.360082 0
0.243992 0.384894 0
0.413825 0.423285 0
0.554223 0.439658 0
0.728893 0.41973 0
0.810239 0.408301 0
0.867948 0.394949 0
0 0.362493 1.5259e-05
0 0.403494 0
0.230915 0.45919 0
0.392294 0.501549 0
0.419516 0.526177 0
0.57673 0.557931 0
0.699748 0.567468 0
0.864576 0.543542 0
0.930892 0.53106 0
0 0.419791 0
0 0.464012 0
0.155596 0.538445 0
0.436423 0.600229 0
0.547616 0.634638 0
0.592157 0.660304 0
0.739727 0.68867 0
0.850675 0.687037 0
0.989807 0.660334 0
0 0.469139 0
0 0.479637 0
0.0116884 0.577142 0
0.414725 0.66508 0
0.625193 0.722286 0
0.723766 0.751583 0
0.762325 0.772213 0
0.896178 0.794583 0
0.999283 0.786221 0
0 0.515953 0.0683909
0 0.516518 0.0720989
0 0.570108 0.0131075
0.355734 0.696361 0.000289921
0.609522 0.768322 3.0518e-05
0.786221 0.81445 0
0.905837 0.841962 0
0.912169 0.846891 0
1 0.859113 0
0.0311284 0.0466926 0.0431983
0.0217441 0.05243 0.0521859
0.0903792 0.0647135 0.0670787
0.203113 0.0737011 0.0717937
0.326818 0.053666 0.0482185
0.44445 4.57771e-05 0.0164034
0.543801 0 0
0.609293 0 0
0.663249 0 0
0 0.0862593 0.0817426
0.0592813 0.0969558 0.0868238
0.151415 0.115145 0.0859388
0.276982 0.122988 0.0640726
0.390677 0.117067 0.0192111
0.493706 0.100252 0
0.568856 0.041474 0
0.618097 0 0
0.663874 0 0
0 0.153017 0.0997482
0.0487221 0.168765 0.0973373
0.151812 0.190982 0.0782025
0.332387 0.20267 0.0318608
0.454978 0.210666 0
0.55906 0.210773 0
0.64065 0.195697 0
0.691707 0.168597 0
0.734188 0.108186 0
0 0.229038 0.0939345
0.00505074 0.249989 0.082536
0.177798 0.277119 0.0358587
0.297444 0.304158 0.000839246
0.485893 0.322469 0
0.609415 0.323217 0
0.695171 0.312413 0
0.759854 0.295583 0
0.814023 0.274205 0
0 0.30576 0.0731823
4.57771e-05 0.33431 0.0248112
0.230213 0.378851 9.15541e-05
0.293431 0.40734 0
0.440787 0.43032 0
0.591638 0.440848 0
0.738781 0.422919 0
0.815915 0.413962 0
0.872023 0.40119 0
0 0.372747 0.00128176
0 0.413108 0
0.235615 0.469352 0
0.426505 0.512032 0
0.444038 0.530571 0
0.597772 0.560906 0
0.723186 0.570459 0
0.873945 0.545617 0
0.935378 0.537148 0
0 0.420432 0
0 0.463645 0
0.153979 0.539025 0
0.435706 0.600824 0
0.586954 0.640848 0
0.610468 0.66392 0
0.752651 0.691096 0
0.867033 0.690776 0
0.994079 0.665263 0
0 0.469535 0
0 0.477623 1.5259e-05
0.0112459 0.577325 0
0.419516 0.667002 0
0.624643 0.723018 0
0.749508 0.756237 0
0.773816 0.774746 0
0.906004 0.79678 0
0.999908 0.785992 0
0 0.517586 0.0788739
0 0.517815 0.0800031
0 0.572732 0.0186007
0.352392 0.695842 0.000259403
0.610773 0.768826 4.57771e-05
0.787198 0.814786 0
0.91426 0.843809 0
0.920104 0.848646 0
1 0.858885 0
0.00805676 0.0560311 0.0945602
0.0534371 0.0597086 0.116625
0.121584 0.0728008 0.136004
0.242206 0.0724498 0.14403
0.35816 0.0247196 0.13843
0.471748 0 0.136904
0.573068 0 0.127596
0.652201 0 0.120485
0.715114 0 0.117113
0 0.1019 0.152193
0.0527657 0.110918 0.162905
0.167071 0.128176 0.171038
0.30251 0.134554 0.167742
0.422354 0.12076 0.155306
0.523751 0.073106 0.136446
0.613993 0.00740063 0.120836
0.679149 1.5259e-05 0.102419
0.706462 0 0.0821698
0 0.173678 0.194171
0.0052491 0.190051 0.198108
0.196124 0.210224 0.194751
0.348104 0.222766 0.181521
0.470619 0.220569 0.161242
0.572519 0.207599 0.135058
0.656458 0.177508 0.0927291
0.716197 0.127489 0.0281682
0.76051 0.0794385 0
0 0.260456 0.214862
0.000183108 0.280751 0.213794
0.20322 0.308721 0.20174
0.334859 0.329488 0.177996
0.512093 0.331426 0.15935
0.621103 0.325948 0.119326
0.712139 0.308751 0.0495766
0.784878 0.291463 0
0.838178 0.278721 0
0 0.347814 0.226078
1.5259e-05 0.375662 0.217945
0.194171 0.410285 0.199054
0.357427 0.438773 0.179843
0.475715 0.454719 0.105531
0.652567 0.448966 0.0235447
0.764675 0.438331 0
0.845075 0.431907 0
0.893858 0.419471 0
0 0.427344 0.224231
0 0.462898 0.208453
0.122545 0.506844 0.176089
0.419821 0.543557 0.12166
0.48014 0.564614 0.0726024
0.642496 0.594522 1.5259e-05
0.780316 0.59295 0
0.907164 0.575921 0
0.942275 0.547982 0
0 0.467613 0.186679
0 0.505608 0.164767
0.0563363 0.569299 0.0808728
0.421546 0.627665 0.00721752
0.622446 0.673625 0.000228885
0.649805 0.694652 0
0.771237 0.694041 0
0.891249 0.694591 0
0.997574 0.67277 0
0 0.479606 0.0443885
0 0.487282 0.0284123
0.00907912 0.585321 1.5259e-05
0.41352 0.672465 0
0.625956 0.72517 0
0.775082 0.761196 0
0.790997 0.778012 0
0.919097 0.799908 0
0.999985 0.785534 0
0 0.520836 0.0910201
0 0.521614 0.093843
0 0.570336 0.0437324
0.350484 0.695888 0.000198367
0.608515 0.768505 7.62951e-05
0.785092 0.814511 0
0.921019 0.84538 0
0.930632 0.851011 0
0.999985 0.858763 0
0 0.0516518 0.192309
0.0611276 0.0592813 0.21297
0.14966 0.0662547 0.2327
0.269993 0.0532692 0.240192
0.385 1.5259e-05 0.24181
0.492256 0 0.245319
0.58819 0 0.246052
0.666682 0 0.246815
0.72784 0 0.261418
0 0.1131 0.244785
0.0275273 0.120119 0.263905
0.176852 0.134051 0.276432
0.317067 0.137255 0.277943
0.435294 0.122713 0.270481
0.535561 0.0729076 0.258762
0.628565 0.00907912 0.254643
0.700298 0 0.252232
0.74107 0 0.261418
0 0.186465 0.30425
1.5259e-05 0.207263 0.304402
0.187732 0.225483 0.310384
0.354604 0.239414 0.305989
0.486992 0.238987 0.297169
0.595956 0.227451 0.286748
0.688807 0.203586 0.272572
0.754055 0.165362 0.258991
0.792248 0.1205 0.257267
0 0.284138 0.338201
0 0.307897 0.341695
0.180743 0.334813 0.334798
0.379797 0.35259 0.329397
0.521126 0.359304 0.316793
0.634241 0.354452 0.2981
0.727703 0.335882 0.275502
0.79469 0.310018 0.245624
0.835859 0.280598 0.224826
0 0.382528 0.367208
0 0.411658 0.365469
0.0977646 0.445212 0.352163
0.39646 0.471489 0.345327
0.50985 0.491783 0.319692
0.675395 0.484245 0.310094
0.772274 0.470497 0.281254
0.84303 0.450904 0.249531
0.88632 0.429725 0.221653
0 0.469093 0.383261
0 0.507225 0.380957
0.045304 0.55198 0.366445
0.396323 0.587793 0.350851
0.546731 0.611734 0.336812
0.655787 0.624186 0.284932
0.809796 0.608972 0.251347
0.895827 0.592386 0.221347
0.941299 0.575463 0.169039
0 0.520928 0.387488
0 0.559838 0.389075
0 0.625116 0.374166
0.374655 0.673198 0.346517
0.592111 0.706096 0.323003
0.662715 0.725322 0.303578
0.786587 0.72607 0.160082
0.929305 0.720134 0
0.992889 0.69723 0.0207675
0 0.556481 0.386557
0 0.558572 0.386023
3.0518e-05 0.650767 0.376974
0.316777 0.718486 0.340734
0.581415 0.762356 0.306691
0.752972 0.788998 0.272389
0.788739 0.79823 0.232563
0.942184 0.819837 0
1 0.785367 0
0 0.596017 0.425437
0 0.596597 0.426108
0 0.639185 0.425711
0.217182 0.740001 0.387198
0.561227 0.795346 0.360479
0.747036 0.82797 0.328481
0.884352 0.847181 0.286702
0.918715 0.861555 0.321584
1 0.85864 0
0 0.00106813 0.298802
0.0699779 0.0153506 0.312566
0.165789 0.0133364 0.328252
0.287434 6.10361e-05 0.333669
0.402594 0 0.336934
0.504417 0 0.340505
0.599252 0 0.346044
0.675944 0 0.351476
0.737667 0 0.378653
0 0.100267 0.344701
0.00953689 0.115969 0.360418
0.180606 0.130419 0.374319
0.324254 0.13167 0.377951
0.441993 0.113481 0.373068
0.542504 0.0462959 0.36553
0.637568 0.00326543 0.365545
0.70811 0 0.367727
0.74873 0 0.384375
0 0.205951 0.395529
0 0.216907 0.405188
0.176867 0.235813 0.414221
0.355215 0.248722 0.414969
0.489754 0.247593 0.411734
0.600046 0.23621 0.406012
0.69308 0.209369 0.397269
0.75845 0.173053 0.391119
0.79736 0.135088 0.405936
0 0.298924 0.446372
0 0.324132 0.4533
0.0870069 0.355352 0.4448
0.372625 0.370626 0.448814
0.522805 0.377768 0.446296
0.641825 0.375723 0.44033
0.741466 0.362417 0.431983
0.812482 0.348562 0.426978
0.857603 0.348333 0.449943
0 0.405478 0.485542
0 0.436347 0.489937
0.0653239 0.472175 0.483314
0.380392 0.497017 0.478569
0.549981 0.510033 0.473457
0.675837 0.513008 0.465522
0.776761 0.501396 0.452186
0.848127 0.485466 0.43711
0.890745 0.468925 0.437263
0 0.497536 0.514931
0 0.537362 0.522667
0.00738537 0.584192 0.515633
0.364569 0.618158 0.503349
0.568719 0.640055 0.498527
0.674815 0.656184 0.481086
0.819699 0.644816 0.473259
0.898085 0.63679 0.456107
0.942992 0.630335 0.458289
0 0.55552 0.538659
0 0.590951 0.547494
0 0.659403 0.543725
0.307927 0.707301 0.527428
0.568856 0.741344 0.519356
0.718944 0.761303 0.511131
0.799435 0.772702 0.474693
0.930953 0.760861 0.458946
0.980911 0.754559 0.463935
0 0.595468 0.566247
0 0.59527 0.565103
0 0.685084 0.575372
0.19469 0.755657 0.554528
0.544152 0.801846 0.547234
0.729534 0.830915 0.541222
0.819516 0.84712 0.53341
0.912505 0.847822 0.446845
1 0.834348 0.402121
0 0.63978 0.634913
0 0.639872 0.634836
0 0.677958 0.646296
0.0518654 0.780346 0.631159
0.511208 0.836957 0.629587
0.714717 0.870893 0.623178
0.859663 0.895933 0.622171
0.929213 0.913878 0.646326
1 0.859419 0
0 0 0.382925
0.0415351 0 0.392691
0.167849 0 0.409094
0.297246 0 0.418341
0.412558 0 0.424445
0.51577 0 0.430503
0.60972 0 0.439826
0.687434 0 0.450935
0.74902 0 0.480049
0 0.0315557 0.424063
0.012314 0.0852827 0.441382
0.1823 0.106416 0.45948
0.326421 0.10518 0.467018
0.44387 0.0589761 0.465919
0.548257 0.0217746 0.463844
0.645258 3.0518e-05 0.467826
0.711574 0 0.46772
0.750362 0 0.482353
0 0.206439 0.48423
0 0.208682 0.499428
0.17409 0.237079 0.510124
0.351934 0.247974 0.516732
0.488975 0.245289 0.517174
0.599359 0.230259 0.514076
0.693355 0.199252 0.509621
0.758267 0.153796 0.507012
0.79855 0.0859998 0.524804
0 0.310521 0.53463
0 0.328634 0.541573
0.0260624 0.365988 0.550439
0.362203 0.379248 0.55787
0.519234 0.386053 0.559594
0.639857 0.38294 0.55787
0.741375 0.369253 0.554528
0.813642 0.353536 0.554559
0.858854 0.354437 0.580636
0 0.418692 0.59057
0 0.450477 0.600168
0.0155795 0.487144 0.595438
0.326314 0.517998 0.589441
0.540993 0.527138 0.597513
0.673518 0.530694 0.596994
0.781888 0.526009 0.595163
0.859602 0.521569 0.595941
0.907042 0.533867 0.627756
0 0.515373 0.625971
0 0.555291 0.641352
0 0.605829 0.640085
0.32163 0.641138 0.630823
0.550912 0.663462 0.633112
0.702098 0.674327 0.632593
0.820523 0.677729 0.629572
0.900816 0.670375 0.62443
0.945617 0.670924 0.637552
0 0.577722 0.656306
0 0.608301 0.668864
0 0.680171 0.673777
0.229129 0.729839 0.659968
0.542489 0.765743 0.663294
0.715846 0.788128 0.662669
0.816922 0.804852 0.653803
0.932494 0.800153 0.653208
0.978836 0.801694 0.66482
0 0.616144 0.685939
0 0.616251 0.686534
0 0.700008 0.704738
0.0935836 0.776623 0.692485
0.509865 0.826123 0.695674
0.709621 0.857633 0.696284
0.856092 0.878798 0.696223
0.915816 0.887419 0.670039
0.998535 0.888563 0.679805
0 0.659876 0.746471
0 0.660182 0.746563
0 0.680293 0.754742
4.57771e-05 0.797925 0.758923
0.475074 0.855421 0.761456
0.693538 0.893584 0.767849
0.84802 0.921935 0.774609
0.94905 0.940948 0.783749
0.994537 0.927413 0.658946
0 0 0.442496
0 0 0.456336
0.160693 0 0.474342
0.300404 0 0.49073
0.419913 0 0.502632
0.525612 0 0.511284
0.621241 0 0.522866
0.698909 0 0.535012
0.762341 0 0.564187
0 4.57771e-05 0.48809
0.00172427 0.0105745 0.499245
0.181201 0.0136263 0.520668
0.320623 0.00631724 0.532418
0.442985 0 0.537804
0.54902 0 0.539727
0.639948 0 0.539635
0.700648 0 0.536233
0.763485 0 0.565744
0 0.160266 0.550713
0 0.174395 0.567483
0.157855 0.217182 0.582437
0.34699 0.225055 0.59292
0.481712 0.21828 0.597269
0.593652 0.199329 0.597833
0.687312 0.155764 0.59559
0.754009 0.0749065 0.59469
0.798733 0 0.612634
0 0.32282 0.611597
0 0.320836 0.620218
0.0362554 0.359838 0.635187
0.350545 0.376226 0.642725
0.512337 0.380987 0.647807
0.636057 0.375341 0.650034
0.739345 0.363333 0.651057
0.813489 0.348226 0.653635
0.858625 0.345098 0.676814
0 0.422629 0.660914
0 0.440696 0.670283
0 0.492226 0.683116
0.27602 0.524758 0.682628
0.52694 0.532784 0.691951
0.665797 0.537484 0.695308
0.780087 0.536324 0.700359
0.860945 0.531289 0.704524
0.908293 0.542535 0.732265
0 0.521538 0.705135
0 0.556359 0.725643
3.0518e-05 0.61387 0.732708
0.252811 0.651484 0.724681
0.494301 0.680934 0.727825
0.693172 0.690761 0.739315
0.819715 0.698085 0.745754
0.905577 0.697566 0.751263
0.954147 0.717266 0.778912
0 0.590021 0.736751
0 0.605829 0.747066
0 0.6869 0.765454
0.0961166 0.741924 0.754696
0.511635 0.781125 0.763714
0.700984 0.806638 0.771939
0.841596 0.823362 0.778668
0.932799 0.828397 0.781628
0.979934 0.833753 0.796811
0 0.628214 0.763653
0 0.628336 0.764019
0 0.697032 0.787152
4.57771e-05 0.786099 0.785534
0.468071 0.838453 0.791226
0.69073 0.875166 0.801984
0.846723 0.899367 0.808667
0.928389 0.913954 0.807126
0.99707 0.919295 0.822049
0 0.671153 0.809171
0 0.671855 0.809628
0 0.672724 0.81033
0 0.80293 0.82977
0.437522 0.863249 0.835645
0.675822 0.90605 0.850172
0.83769 0.936446 0.862303
0.945205 0.956542 0.872908
0.995148 0.959701 0.838788
0 0 0.494972
1.5259e-05 0 0.513008
0.142519 0 0.531456
0.297276 0 0.551873
0.421027 0 0.566506
0.532738 0 0.580484
0.631083 0 0.592691
0.710796 0 0.606516
0.774701 0 0.633127
0 0 0.505577
0 0 0.52108
0.148867 0 0.538521
0.298497 0 0.552743
0.423636 0 0.567452
0.534279 0 0.581445
0.632746 0 0.593423
0.712032 0 0.607477
0.775601 0 0.634485
0 0.0217288 0.580331
0 0.0835584 0.599161
0.140154 0.16405 0.625269
0.331533 0.162371 0.63917
0.466087 0.144625 0.647532
0.578164 0.101869 0.651804
0.675563 0.00360113 0.653376
0.753811 0 0.660243
0.803647 0 0.672679
0 0.302434 0.670466
0 0.285466 0.675319
0.0264897 0.335332 0.692088
0.332662 0.354986 0.701549
0.498894 0.360464 0.711803
0.629541 0.353597 0.718746
0.734615 0.337667 0.722606
0.8094 0.317815 0.725261
0.854261 0.315877 0.741482
0 0.441871 0.721569
0 0.439307 0.721798
0 0.473335 0.746914
0.269566 0.514595 0.749798
0.509819 0.52755 0.76144
0.657145 0.532967 0.76965
0.77557 0.531975 0.778027
0.859052 0.526589 0.784588
0.907332 0.537652 0.804379
0 0.530861 0.761334
0 0.534493 0.761776
0 0.576181 0.784878
0 0.647181 0.793866
0.463447 0.685298 0.803082
0.681285 0.698054 0.816693
0.813626 0.706218 0.827039
0.903517 0.706752 0.83447
0.953613 0.723964 0.853208
0 0.594141 0.789792
0 0.594308 0.78999
0 0.678401 0.823758
1.5259e-05 0.743725 0.820035
0.46595 0.787381 0.831724
0.647562 0.819684 0.842176
0.83328 0.834974 0.858656
0.931395 0.844129 0.867964
0.982193 0.859266 0.885161
0 0.633738 0.809903
0 0.63386 0.809995
0 0.67805 0.831998
0 0.784634 0.844236
0.421607 0.842481 0.851072
0.670817 0.884779 0.869459
0.835035 0.911406 0.881666
0.943954 0.928634 0.892363
0.995834 0.936782 0.902937
0 0.676143 0.839323
0 0.676463 0.83949
0 0.67718 0.839994
0 0.797238 0.865095
0.392798 0.86363 0.871717
0.65713 0.910094 0.8916
0.826581 0.942641 0.907195
0.940169 0.964294 0.919295
0.99704 0.973953 0.919234
0 0 0.536507
0 0 0.553033
0.100954 0 0.572183
0.283177 0 0.597131
0.418204 0 0.616663
0.534524 0 0.634058
0.637003 0 0.647745
0.720638 0 0.66302
0.785031 0 0.683986
0 0 0.536904
0 0 0.553399
0.101228 0 0.572808
0.284108 0 0.598047
0.418601 0 0.617166
0.536614 0 0.63473
0.638758 0 0.64863
0.722042 0 0.66363
0.786053 0 0.684932
0 0 0.589181
0 7.62951e-05 0.603311
0.129229 0.0113832 0.624613
0.304662 0.00199893 0.644938
0.440497 3.0518e-05 0.659403
0.560098 0 0.66775
0.656733 0 0.669703
0.724819 0 0.665125
0.788144 0 0.686992
0 0.21474 0.677531
0 0.208637 0.685969
0.0111849 0.281163 0.714549
0.304555 0.309331 0.729931
0.480186 0.312688 0.745007
0.612329 0.307378 0.755978
0.719509 0.28333 0.761837
0.796338 0.255665 0.765728
0.841428 0.248325 0.773159
0 0.422126 0.756039
0 0.41149 0.753658
0 0.445655 0.780514
0.236591 0.490974 0.783551
0.487221 0.509071 0.801846
0.642893 0.514168 0.815183
0.76379 0.512749 0.825574
0.852537 0.507836 0.834485
0.902892 0.517754 0.844984
0 0.547799 0.800244
0 0.54667 0.800366
0 0.543786 0.800366
0 0.636088 0.834073
0.460777 0.676265 0.845441
0.659709 0.69575 0.862776
0.80238 0.704234 0.876188
0.898711 0.705959 0.885695
0.952529 0.725078 0.896574
0 0.605219 0.818402
0 0.606378 0.818662
0 0.607385 0.818967
0 0.644862 0.841978
0.0864424 0.766018 0.857649
0.64622 0.820096 0.888533
0.819577 0.840375 0.905501
0.925261 0.84979 0.915511
0.981338 0.864851 0.924865
0 0.633936 0.830991
0 0.633951 0.831006
0 0.637659 0.833371
0 0.765896 0.873487
0.169451 0.824094 0.870665
0.529595 0.869612 0.891463
0.772839 0.911986 0.914778
0.93637 0.934691 0.930861
0.995163 0.945739 0.938796
0 0.67715 0.85156
0 0.67744 0.851667
0 0.678096 0.852003
0 0.778912 0.87837
0.316075 0.856489 0.882811
0.626596 0.90811 0.906996
0.809476 0.943221 0.924773
0.934539 0.966751 0.937514
0.999359 0.978668 0.945296
