KODAK.cube
TITLE "Generated by Resolve"
LUT_3D_SIZE 9
0.0576638 0.0275883 0.00297551
0.0932937 0.0348363 0.0047303
0.186526 0.0473335 0
0.296407 0.0513161 0
0.402701 0.0135958 0
0.494118 0.0040589 0
0.573297 0.00480659 0
0.639246 0.00550851 0
0.695964 0.00610361 0
0.0245365 0.0866865 0.0103914
0.106508 0.100999 0.00956741
0.226368 0.126131 0
0.356374 0.149264 0
0.474388 0.15874 0
0.569146 0.157824 0
0.648585 0.149859 0
0.712413 0.14493 0
0.768124 0.164019 0
0.024033 0.159503 0.00840772
0.0879683 0.180819 0
0.256733 0.221973 0
0.403647 0.25507 0
0.529809 0.273152 0
0.630976 0.280873 0
0.714611 0.282628 0
0.778073 0.285115 0
0.831556 0.309194 0
0.0321965 0.237217 0
0.0390631 0.26891 0
0.275319 0.323613 0
0.4383 0.36463 0
0.570779 0.388113 0
0.676402 0.400351 0
0.763622 0.406226 0
0.829114 0.412192 0
0.880247 0.437812 0
0.0321355 0.321248 0
0.0320134 0.363195 0
0.2869 0.429816 0
0.469596 0.478172 0
0.612024 0.50779 0
0.722301 0.524041 0
0.812558 0.532921 0
0.882292 0.542123 0
0.935088 0.56907 0
0.0318608 0.385382 0
0.0316014 0.438315 0
0.294728 0.51574 0
0.493935 0.572457 0
0.645792 0.608835 0
0.761807 0.630396 0
0.855558 0.642771 0
0.928161 0.654185 0
0.973648 0.676997 0
0.0316167 0.435264 0
0.0312657 0.499367 0
0.303273 0.585611 0
0.5131 0.65008 0
0.672923 0.693141 0
0.794644 0.720394 0
0.8925 0.73727 0
0.966125 0.750469 0
0.973114 0.755627 0
0.0314031 0.469337 0
0.0310063 0.544869 0
0.314977 0.63505 0
0.531411 0.705577 0
0.692256 0.752407 0
0.817334 0.785077 0
0.919768 0.80856 0
0.972564 0.816342 0
0.97258 0.814923 0
0.016846 0.550835 0.168383
0.0174716 0.624704 0.117067
0.358221 0.689967 0.0204318
0.555978 0.745022 0
0.702266 0.787335 0
0.820356 0.819013 0
0.918883 0.843732 0
0.972213 0.854261 0
0.972274 0.847059 0
0.051133 0.0229953 0.0667887
0.0982223 0.030457 0.0702068
0.201358 0.0363165 0.0685283
0.316335 0.0124971 0.066331
0.431434 0 0.0694133
0.526024 0 0.0652476
0.606012 0 0.0599832
0.669871 4.57771e-05 0.0683909
0.719524 0.000411994 0.110842
0.0208743 0.101381 0.0952926
0.0923781 0.116594 0.088777
0.241459 0.125154 0.0795758
0.376059 0.13315 0.0679942
0.4934 0.127611 0.0505684
0.587442 0.111818 0.0269474
0.66601 0.075639 0
0.726833 0.0317388 0
0.767666 0.0469673 0.0438239
0.0198062 0.189029 0.117403
0.0305638 0.21033 0.114549
0.263676 0.240833 0.0899672
0.418235 0.254108 0.0698405
0.546181 0.262455 0.0393835
0.647486 0.266636 0.00355535
0.731609 0.266255 0
0.790509 0.264256 0
0.825284 0.270741 0.0308385
0.0189822 0.280018 0.135897
0.0187991 0.30811 0.128176
0.260502 0.351965 0.0874342
0.446723 0.378119 0.0530251
0.584039 0.39443 0.00796521
0.692927 0.405539 0
0.780301 0.409079 0
0.840803 0.411917 0
0.872419 0.425483 0
0.018204 0.372442 0.154116
0.0179904 0.408942 0.138155
0.243931 0.463783 0.0765087
0.470039 0.504021 0.0249638
0.625681 0.532174 0
0.740597 0.547524 0
0.830625 0.553399 0
0.896101 0.55967 0
0.926604 0.572885 0
0.0176547 0.437797 0.172992
0.01738 0.485206 0.15375
0.206882 0.548989 0.0756237
0.484565 0.599435 0.00741588
0.652277 0.635935 0
0.774426 0.657649 0
0.86952 0.669047 0
0.937606 0.677668 0
0.966171 0.688258 0
0.0171969 0.486656 0.20029
0.016846 0.544671 0.181277
0.169924 0.614786 0.0953078
0.489235 0.672206 0.0250706
0.6654 0.713252 0
0.794339 0.741222 0
0.895491 0.759289 0
0.964828 0.770199 0
0.97293 0.76968 0
0.0167544 0.522087 0.249104
0.0163272 0.58851 0.23595
0.147585 0.659541 0.15227
0.483146 0.719112 0.100313
0.663859 0.756848 0.0426642
0.795636 0.786282 0
0.900023 0.809415 0
0.969924 0.822934 0
0.972457 0.816602 0
0.0155489 0.603021 0.419745
0.0150454 0.676844 0.410834
0.221744 0.733257 0.354162
0.46978 0.779263 0.315862
0.648432 0.810117 0.299092
0.781964 0.833112 0.286
0.883879 0.846998 0.277485
0.952758 0.85481 0.276524
0.970062 0.85803 0.31194
0.0336461 0.00183108 0.160861
0.0999161 0.00650034 0.17322
0.208225 0.0110018 0.183612
0.329412 0 0.187137
0.445975 0 0.193225
0.540917 0 0.19852
0.620813 0 0.204822
0.682994 0 0.218372
0.728786 0 0.259174
0.0200046 0.103822 0.213367
0.0539864 0.117708 0.2177
0.242603 0.124453 0.223819
0.384421 0.126406 0.205066
0.503273 0.116701 0.195056
0.598337 0.0970779 0.191272
0.676432 0.0597391 0.195926
0.732052 0.012192 0.210071
0.771893 0.057847 0.247761
0.019028 0.211444 0.256001
0.0192111 0.233783 0.26067
0.240711 0.265888 0.254108
0.42182 0.251316 0.214359
0.553307 0.249607 0.200992
0.654612 0.242939 0.191669
0.735225 0.23267 0.18529
0.790768 0.226444 0.186725
0.827268 0.242145 0.227161
0.0181277 0.315084 0.289998
0.0179141 0.343191 0.292332
0.199863 0.384756 0.259358
0.442344 0.40322 0.23566
0.58648 0.399039 0.218341
0.693065 0.395163 0.206638
0.776425 0.388296 0.199374
0.835584 0.387503 0.200702
0.870146 0.404746 0.242206
0.0172732 0.414267 0.323522
0.0169985 0.451926 0.320424
0.139071 0.503594 0.285863
0.439567 0.542016 0.24538
0.617472 0.552697 0.231327
0.731456 0.549584 0.21767
0.819059 0.544961 0.207645
0.882124 0.545159 0.208698
0.91603 0.562737 0.25658
0.0166629 0.482155 0.352087
0.0163272 0.530999 0.349371
0.106783 0.59115 0.314687
0.431586 0.638972 0.259846
0.631739 0.6654 0.245884
0.75816 0.668986 0.230411
0.85127 0.667796 0.21828
0.916701 0.669627 0.218875
0.949676 0.685023 0.269108
0.0162051 0.529931 0.383093
0.0157778 0.588907 0.38233
0.0772259 0.655787 0.350088
0.418509 0.710903 0.283833
0.629511 0.743786 0.268345
0.773632 0.761761 0.252964
0.872648 0.763989 0.239109
0.939788 0.767758 0.238544
0.969848 0.779019 0.285649
0.0158083 0.560723 0.429526
0.0153201 0.628153 0.433265
0.0665751 0.69575 0.399252
0.400198 0.753628 0.328603
0.618265 0.790082 0.316091
0.770214 0.814282 0.302571
0.879042 0.824262 0.28893
0.949142 0.82916 0.285557
0.970184 0.834119 0.32253
0.0148165 0.629419 0.56495
0.0142977 0.703044 0.565744
0.138109 0.756344 0.539071
0.408057 0.802945 0.491997
0.596704 0.834333 0.464652
0.749691 0.858473 0.458335
0.869261 0.877653 0.456092
0.940551 0.880232 0.456794
0.968826 0.885588 0.48777
0.0286107 0 0.258015
0.100389 0 0.272709
0.217472 0 0.28986
0.340597 0 0.298054
0.455955 0 0.306188
0.550134 0 0.313954
0.629404 0 0.322118
0.690028 0 0.335485
0.734737 0 0.378439
0.0195621 0.0919814 0.320546
0.0252384 0.119982 0.331075
0.224826 0.119753 0.347021
0.385779 0.125612 0.345968
0.505913 0.115389 0.333898
0.601099 0.0925307 0.330983
0.679316 0.055436 0.33698
0.734768 0.00900282 0.352239
0.772183 0.0546883 0.39115
0.0184176 0.221408 0.379232
0.0182193 0.244633 0.387167
0.199893 0.251408 0.390402
0.417441 0.25626 0.383322
0.552819 0.250233 0.35697
0.655238 0.242176 0.345708
0.735882 0.23209 0.340642
0.791165 0.228244 0.345525
0.825895 0.249821 0.391104
0.0174411 0.334569 0.423102
0.0172122 0.36434 0.431235
0.146136 0.403616 0.42652
0.432425 0.431998 0.418799
0.58114 0.394278 0.368032
0.690105 0.385138 0.353765
0.774792 0.375814 0.346197
0.833371 0.372976 0.347982
0.867735 0.39115 0.386435
0.016556 0.441169 0.461219
0.0162509 0.48014 0.468879
0.0805524 0.530892 0.455573
0.383566 0.567773 0.409689
0.60592 0.578241 0.394049
0.72369 0.559213 0.377188
0.813764 0.548653 0.368093
0.877272 0.546532 0.371038
0.91075 0.563821 0.412528
0.0159304 0.511803 0.493828
0.0155489 0.560922 0.500999
0.0584726 0.620203 0.485664
0.370016 0.666606 0.432166
0.597208 0.692149 0.410895
0.747005 0.69453 0.400366
0.842939 0.68455 0.390738
0.908782 0.682033 0.392554
0.941985 0.696742 0.435172
0.0154726 0.558892 0.524819
0.0150149 0.618143 0.533028
0.0417639 0.684031 0.517113
0.358724 0.738277 0.464424
0.583505 0.771069 0.434028
0.751812 0.79147 0.426764
0.861921 0.790967 0.418418
0.929198 0.788373 0.418372
0.962432 0.799313 0.458701
0.0151217 0.586923 0.566094
0.0146029 0.653696 0.575845
0.0318303 0.721691 0.558679
0.352667 0.778042 0.512291
0.564263 0.815244 0.477089
0.738766 0.840238 0.469688
0.867002 0.855146 0.461723
0.93875 0.854459 0.462043
0.968978 0.860121 0.49337
0.0143282 0.645457 0.666789
0.0137789 0.719478 0.673823
0.0708629 0.771374 0.659129
0.384863 0.819089 0.637552
0.551202 0.851896 0.601663
0.714183 0.877653 0.58732
0.849714 0.898421 0.587396
0.934936 0.905211 0.590173
0.968017 0.907057 0.613687
0.0283665 0 0.339818
0.085069 0 0.356481
0.22266 0 0.378759
0.350607 0 0.392355
0.465171 0 0.400305
0.558419 0 0.40914
0.637812 0 0.420417
0.698131 0 0.433417
0.743801 0 0.475212
0.019501 0.051667 0.402518
0.0222934 0.11107 0.422782
0.218173 0.113741 0.445167
0.379995 0.119173 0.453574
0.506798 0.107607 0.449302
0.603006 0.0759747 0.447181
0.682597 0.0396277 0.452796
0.740032 0.00810254 0.466636
0.777066 0.0417945 0.50396
0.0180209 0.221073 0.476524
0.017792 0.246967 0.488899
0.178164 0.25568 0.496559
0.390066 0.255604 0.504875
0.550118 0.256489 0.496544
0.6542 0.247898 0.4813
0.736248 0.23772 0.475181
0.792523 0.234302 0.480476
0.827741 0.256703 0.520226
0.0169528 0.34551 0.526543
0.0166934 0.375387 0.538888
0.114397 0.409659 0.536553
0.369848 0.404364 0.54432
0.57554 0.403677 0.532494
0.686717 0.391196 0.502937
0.772946 0.38175 0.491234
0.833478 0.380377 0.493339
0.869276 0.404578 0.533349
0.016022 0.457282 0.567727
0.015671 0.498207 0.583307
0.0580606 0.548302 0.576745
0.361959 0.586664 0.57583
0.585733 0.603601 0.554437
0.717723 0.561151 0.515862
0.811231 0.54725 0.502251
0.875563 0.540246 0.502525
0.910948 0.559853 0.538857
0.0153811 0.52958 0.600153
0.0149844 0.579721 0.615625
0.0272374 0.640085 0.608072
0.344213 0.686244 0.589258
0.546151 0.711803 0.552682
0.738689 0.721645 0.546014
0.838773 0.699763 0.530999
0.905638 0.690181 0.528725
0.94049 0.704936 0.56466
0.0149538 0.576379 0.629847
0.0144808 0.63621 0.64358
0.0140536 0.703349 0.636118
0.329183 0.75639 0.612955
0.534264 0.790921 0.575753
0.722026 0.813596 0.564126
0.855467 0.817746 0.559274
0.924895 0.807233 0.554208
0.959258 0.815274 0.588327
0.0146639 0.600534 0.660273
0.0141299 0.668818 0.676768
0.0136721 0.738262 0.668742
0.323735 0.794064 0.648127
0.526528 0.833204 0.619364
0.702296 0.859785 0.597192
0.851133 0.878431 0.594308
0.933547 0.876677 0.593103
0.967956 0.880079 0.619394
0.0140078 0.653941 0.734142
0.0134432 0.729183 0.746151
0.056611 0.780774 0.737392
0.364187 0.828046 0.732677
0.536583 0.863676 0.717861
0.677348 0.8916 0.69099
0.828794 0.913558 0.69041
0.931563 0.926329 0.693339
0.967453 0.923537 0.71046
0.0281682 0 0.402365
0.0575875 0 0.419715
0.223224 0 0.446571
0.356298 0 0.464515
0.472038 0 0.475242
0.566125 0 0.485878
0.645441 0 0.49778
0.707027 0 0.511223
0.752316 0 0.549004
0.0223392 0.0103456 0.46714
0.0195773 0.0961318 0.49102
0.215183 0.10631 0.519295
0.375387 0.110277 0.531563
0.506127 0.0942855 0.535973
0.605844 0.0624552 0.537194
0.687434 0.0117494 0.544259
0.74696 0.0069276 0.556512
0.782483 0.010193 0.589914
0.0177768 0.215656 0.545754
0.0175021 0.244953 0.564004
0.156863 0.261326 0.574685
0.373724 0.254643 0.587503
0.539162 0.257343 0.592523
0.653391 0.250874 0.585519
0.736934 0.24126 0.579141
0.794675 0.238331 0.582803
0.830091 0.261311 0.616587
0.0166323 0.350057 0.601678
0.0163424 0.381521 0.618418
0.0880598 0.417975 0.619028
0.349157 0.405371 0.630488
0.545403 0.403494 0.635019
0.683833 0.400732 0.624262
0.772915 0.392615 0.610605
0.835019 0.391089 0.609659
0.871199 0.414908 0.643748
0.0156405 0.468132 0.645289
0.0152743 0.50927 0.665232
0.0390631 0.558389 0.661768
0.33727 0.58117 0.66775
0.531868 0.580468 0.67451
0.713054 0.57052 0.657938
0.809766 0.55494 0.630594
0.875486 0.547509 0.626062
0.911665 0.569924 0.656474
0.0149996 0.541695 0.676844
0.0145876 0.592004 0.696712
0.0141756 0.652155 0.693599
0.321279 0.698222 0.695979
0.52903 0.725933 0.694102
0.719173 0.74345 0.675227
0.835401 0.706859 0.646693
0.904295 0.691966 0.638712
0.939941 0.704997 0.665324
0.0146029 0.586328 0.700145
0.0141146 0.647013 0.720119
0.0136263 0.715816 0.718975
0.303304 0.767742 0.7122
0.517479 0.804761 0.701747
0.681865 0.829267 0.673991
0.850202 0.842176 0.67454
0.922469 0.821729 0.663996
0.957671 0.825574 0.688228
0.0143435 0.610117 0.724636
0.0138094 0.677348 0.744854
0.0133211 0.748394 0.743175
0.29781 0.803113 0.736965
0.510979 0.844938 0.729137
0.667887 0.873762 0.704402
0.829801 0.894026 0.697032
0.930739 0.896239 0.6972
0.966186 0.894423 0.714275
0.0138247 0.65745 0.77586
0.0132296 0.734279 0.791348
0.0412299 0.785946 0.786023
0.348257 0.83331 0.79147
0.525689 0.871214 0.790524
0.667796 0.900572 0.78024
0.805081 0.923201 0.763882
0.922637 0.938094 0.767971
0.967086 0.935149 0.778317
0.0280003 0 0.451835
0.0327764 0 0.470878
0.221378 0 0.500328
0.358267 0 0.521126
0.476234 0 0.535958
0.572183 0 0.548669
0.653483 0 0.561944
0.715633 0 0.575586
0.761685 0 0.60824
0.0265049 0 0.521187
0.0195163 0.0761578 0.544305
0.213245 0.0968338 0.576562
0.37261 0.0978561 0.592187
0.505287 0.0758679 0.601831
0.608881 0.0457465 0.608743
0.693385 0.0069276 0.617029
0.754192 0.00538643 0.628809
0.788388 0.00953689 0.654536
0.0176547 0.205371 0.596262
0.0173037 0.241657 0.621118
0.139422 0.265354 0.633677
0.362829 0.253666 0.649927
0.527031 0.256229 0.659754
0.650797 0.252338 0.666072
0.737819 0.243717 0.662028
0.796994 0.24094 0.663676
0.832425 0.264775 0.690486
0.0163882 0.353506 0.657496
0.016083 0.385046 0.678691
0.0640116 0.425528 0.681865
0.335363 0.408438 0.695674
0.521813 0.401801 0.703685
0.672435 0.405249 0.711543
0.773739 0.401801 0.706111
0.837201 0.399863 0.702251
0.873137 0.422583 0.727825
0.0153964 0.472831 0.700618
0.0150301 0.513756 0.722576
0.0187076 0.565286 0.72462
0.317983 0.580011 0.734112
0.50753 0.574899 0.745296
0.684138 0.572641 0.75462
0.808743 0.568109 0.742321
0.876295 0.559991 0.730709
0.912367 0.580011 0.749905
0.0147707 0.546761 0.729107
0.014313 0.598184 0.753445
0.0138857 0.659297 0.755856
0.298253 0.695781 0.760723
0.509499 0.720897 0.774609
0.676478 0.729915 0.785092
0.832349 0.712215 0.762066
0.903655 0.696361 0.742428
0.939666 0.708995 0.757321
0.014374 0.592309 0.749599
0.0138705 0.653117 0.773129
0.0133669 0.722423 0.77705
0.281117 0.773327 0.779629
0.50396 0.814084 0.789166
0.667063 0.840146 0.786313
0.834089 0.856916 0.773098
0.920882 0.830488 0.757
0.956664 0.829709 0.767788
0.0141604 0.614374 0.765789
0.0135958 0.681453 0.7897
0.0130922 0.753414 0.79321
0.276524 0.807614 0.795773
0.498131 0.85211 0.803677
0.657069 0.883223 0.798535
0.803174 0.90518 0.779538
0.928878 0.9131 0.782712
0.96466 0.903975 0.787396
0.0137179 0.659571 0.799863
0.0131075 0.73669 0.818097
0.0160983 0.787686 0.813703
0.335866 0.835889 0.826505
0.517311 0.875303 0.834806
0.660212 0.905516 0.834409
0.788357 0.92871 0.822126
0.911665 0.944411 0.820844
0.966873 0.942641 0.824033
0.0278935 0 0.487617
0.0296483 0 0.509468
0.21886 0 0.539376
0.35845 0 0.563394
0.47866 0 0.581506
0.576181 0 0.596201
0.659098 0 0.609949
0.72256 0 0.623926
0.768536 0 0.650034
0.0276188 0 0.558282
0.0193942 0.0582895 0.580987
0.209522 0.0906996 0.615244
0.369238 0.0882582 0.633967
0.504005 0.0692607 0.647379
0.609857 0.0334325 0.658122
0.697185 0.00637827 0.669673
0.758907 0.00404364 0.680293
0.792248 0.00950637 0.698528
0.0175479 0.201312 0.629831
0.0171969 0.237263 0.656214
0.128069 0.266926 0.672236
0.35198 0.253025 0.692241
0.518303 0.257511 0.707118
0.642573 0.254246 0.716594
0.738033 0.246403 0.720913
0.798032 0.242451 0.722271
0.834348 0.268772 0.739757
0.0162661 0.353109 0.689601
0.0159457 0.385473 0.714458
0.0564431 0.427482 0.721035
0.325612 0.412177 0.737926
0.507988 0.404227 0.75256
0.656519 0.407446 0.762936
0.772152 0.407172 0.771115
0.837964 0.405661 0.767971
0.875227 0.428946 0.782071
0.015259 0.475013 0.73344
0.014847 0.518547 0.759594
0.0158236 0.569879 0.764279
0.305165 0.583535 0.775784
0.493858 0.576654 0.79237
0.658701 0.570779 0.804913
0.802716 0.575769 0.815076
0.876005 0.568795 0.803662
0.913497 0.589258 0.811612
0.0146181 0.550393 0.762249
0.0141756 0.601267 0.785611
0.0137179 0.662791 0.792615
0.281636 0.696925 0.799939
0.494972 0.717388 0.818875
0.653376 0.720638 0.833188
0.818173 0.719249 0.844358
0.902571 0.707103 0.822477
0.939895 0.71899 0.824018
0.0142824 0.593149 0.773541
0.0137484 0.655024 0.801312
0.0132601 0.724437 0.809216
0.261051 0.771939 0.81442
0.491875 0.81445 0.835554
0.657252 0.845365 0.851026
0.812131 0.865049 0.85922
0.918959 0.831678 0.823178
0.956222 0.829175 0.820752
0.0140536 0.616983 0.788067
0.013489 0.684169 0.813626
0.0129702 0.754986 0.819638
0.261219 0.808652 0.82565
0.489021 0.856107 0.844709
0.648722 0.888182 0.850446
0.788876 0.910918 0.843519
0.926345 0.924926 0.838605
0.964263 0.909606 0.832609
0.0136568 0.660334 0.812772
0.0130617 0.736477 0.829969
0.012726 0.787671 0.82797
0.323476 0.834989 0.842481
0.508888 0.875776 0.856153
0.653147 0.907012 0.861601
0.782254 0.931533 0.857725
0.903273 0.947936 0.849363
0.966751 0.947372 0.850553
0.0277714 0 0.520241
0.0276951 0 0.541924
0.214405 0 0.57351
0.357214 0 0.599725
0.479606 0 0.619196
0.579599 0 0.635294
0.666911 0 0.652903
0.732586 0 0.666377
0.777539 0 0.685542
0.0268101 0 0.584604
0.0186313 0.062562 0.61088
0.194827 0.107179 0.646448
0.361486 0.10959 0.670527
0.498589 0.0901503 0.685786
0.607736 0.0648356 0.697719
0.697307 0.0101472 0.708614
0.76173 0.00726329 0.719478
0.796765 0.0535439 0.730846
0.0174258 0.206943 0.653056
0.0170443 0.246098 0.682795
0.105211 0.28426 0.700008
0.3364 0.264302 0.723049
0.505623 0.269337 0.740246
0.633707 0.267155 0.752468
0.735103 0.260563 0.761395
0.800061 0.256138 0.764782
0.837949 0.282933 0.774945
0.016144 0.358663 0.712795
0.0158083 0.39353 0.737514
0.0440986 0.437415 0.746532
0.310155 0.424506 0.765133
0.490608 0.412421 0.78378
0.641886 0.417136 0.797543
0.760174 0.418082 0.808316
0.839078 0.418677 0.812619
0.878004 0.440986 0.818723
0.0151522 0.478584 0.753307
0.0147555 0.522148 0.778973
0.0143587 0.575967 0.78912
0.282536 0.589395 0.800381
0.477333 0.585718 0.820996
0.636454 0.576684 0.837003
0.782773 0.582544 0.849638
0.876295 0.582864 0.851041
0.915694 0.602014 0.84976
0.0145571 0.551781 0.776669
0.0140841 0.60354 0.804303
0.0137179 0.666896 0.815213
0.256153 0.699428 0.822065
0.476814 0.720058 0.844648
0.634195 0.724056 0.862104
0.788357 0.71931 0.875608
0.901549 0.720012 0.872999
0.941085 0.730617 0.8636
0.0141909 0.596613 0.790265
0.0136721 0.655558 0.818067
0.013138 0.726314 0.828168
0.23357 0.772366 0.833432
0.474311 0.812284 0.857618
0.638514 0.839796 0.875807
0.785367 0.853498 0.88954
0.91664 0.841566 0.877607
0.956207 0.836484 0.859709
0.014023 0.616541 0.796887
0.0134432 0.684367 0.825635
0.0129397 0.753933 0.83331
0.234974 0.806683 0.839643
0.474952 0.855329 0.863645
0.63772 0.890654 0.877852
0.779355 0.914519 0.881193
0.914458 0.929854 0.872358
0.963516 0.913115 0.860014
0.0136568 0.659373 0.817914
0.0130617 0.733913 0.834867
0.0126955 0.787182 0.835615
0.304585 0.832288 0.848981
0.497307 0.875883 0.86772
0.643351 0.907713 0.876127
0.773114 0.932204 0.875715
0.893751 0.94931 0.864912
0.96669 0.949828 0.864378
