KODAK.cube
TITLE "Generated by Resolve"
LUT_3D_SIZE 65
0.0576638 0.0275883 0.00297551
0.059617 0.0276799 0.00340276
0.055375 0.0282444 0.00383001
0.0557717 0.028748 0.00395209
0.0596323 0.029221 0.00396735
0.0700084 0.0297398 0.00387579
0.078706 0.0306859 0.00395209
0.0861524 0.0327001 0.00436408
0.0932937 0.0348363 0.0047303
0.099794 0.0375677 0.00494392
0.106325 0.0402533 0.00514229
0.117632 0.0419165 0.0049897
0.128725 0.0435798 0.00485237
0.142733 0.0446021 0.00402838
0.157687 0.0453651 0.00294499
0.172351 0.0462348 0.00108339
0.186526 0.0473335 0
0.200427 0.0484321 0
0.214191 0.0497902 0
0.227619 0.0512703 0
0.240894 0.0527352 0
0.254826 0.0529183 0
0.268605 0.0528878 0
0.282231 0.0528572 0
0.296407 0.0513161 0
0.310307 0.0496681 0
0.324056 0.0480354 0
0.337774 0.0440681 0
0.351354 0.039704 0
0.364782 0.0353857 0
0.37763 0.0289464 0
0.390249 0.0212253 0
0.402701 0.0135958 0
0.414862 0.00794995 0
0.426398 0.00645457 0
0.437797 0.0049897 0
0.449332 0.00349432 0
0.460487 0.00363165 0
0.471778 0.00378424 0
0.483085 0.00395209 0
0.494118 0.0040589 0
0.504936 0.0041352 0
0.515892 0.00421149 0
0.526284 0.00430304 0
0.53608 0.00440986 0
0.546105 0.00451667 0
0.555795 0.00460822 0
0.564401 0.00469978 0
0.573297 0.00480659 0
0.58204 0.00489815 0
0.590417 0.0049897 0
0.598978 0.00508125 0
0.607156 0.00515755 0
0.615305 0.0052491 0
0.623636 0.00534066 0
0.631266 0.00541695 0
0.639246 0.00550851 0
0.646372 0.0055848 0
0.653834 0.0056611 0
0.660853 0.00573739 0
0.667872 0.00581369 0
0.675013 0.00588998 0
0.681987 0.00596628 0
0.688334 0.00602731 0
0.695964 0.00610361 0
0.0571603 0.0363012 0.00408942
0.059617 0.0364385 0.00457771
0.0552682 0.0368505 0.00503548
0.0556954 0.0374609 0.00531014
0.0598154 0.0381628 0.00550851
0.0709697 0.0391852 0.00563058
0.0804913 0.0404974 0.00573739
0.0890822 0.042649 0.00585946
0.0970626 0.0447852 0.00595102
0.103365 0.0470588 0.00595102
0.109728 0.0492866 0.00595102
0.121584 0.0511788 0.00584421
0.133227 0.0530404 0.00576791
0.147738 0.0543374 0.00476081
0.163149 0.0554055 0.00343328
0.178256 0.0566567 0.00111391
0.19292 0.0584421 0
0.207294 0.0601968 0
0.221561 0.06215 0
0.235508 0.0641794 0
0.249302 0.0661784 0
0.263615 0.0670481 0
0.277745 0.0677043 0
0.291722 0.0683452 0
0.306233 0.0678721 0
0.32047 0.0672923 0
0.334539 0.0667277 0
0.348592 0.065507 0
0.362493 0.0641642 0
0.376226 0.0628367 0
0.389227 0.0604715 0
0.401923 0.0574807 0
0.41445 0.0545205 0
0.426566 0.0507515 0
0.437827 0.0453498 0
0.448936 0.0400092 0
0.460197 0.0346075 0
0.471275 0.0257725 0
0.48249 0.0167697 0
0.493721 0.00776684 0
0.504814 0.00459297 0
0.51577 0.00456245 0
0.526879 0.00453193 0
0.537408 0.00454719 0
0.54728 0.00460822 0
0.557412 0.00466926 0
0.567208 0.00474556 0
0.575906 0.00483711 0
0.584894 0.00492866 0
0.593729 0.00502022 0
0.602182 0.00511177 0
0.610819 0.00520333 0
0.619058 0.00529488 0
0.627268 0.00537118 0
0.635645 0.00546273 0
0.643275 0.00555428 0
0.651255 0.00563058 0
0.658274 0.00570687 0
0.665614 0.00578317 0
0.67245 0.00585946 0
0.679271 0.00593576 0
0.686229 0.00601205 0
0.693095 0.00607309 0
0.699397 0.00614939 0
0.706981 0.00622568 0
0.0576638 0.0415045 0.00569161
0.0601663 0.0415656 0.00611887
0.0560311 0.0419013 0.00665293
0.0567178 0.0424811 0.00708019
0.0611276 0.043183 0.00738537
0.0727092 0.0442359 0.00755322
0.0825971 0.0455634 0.00758373
0.0915236 0.0476844 0.00737011
0.0998703 0.0498512 0.00724804
0.106691 0.0523232 0.00741588
0.113558 0.0547799 0.00755322
0.125811 0.0569162 0.00706493
0.13785 0.0590372 0.00657664
0.152743 0.0606241 0.00547799
0.168521 0.0620279 0.00418097
0.184009 0.0635996 0.00178531
0.199069 0.0657511 0
0.213825 0.0678569 0
0.228504 0.070222 0
0.242863 0.072694 0
0.257053 0.0751354 0
0.271687 0.0764477 0
0.286107 0.0775464 0
0.300359 0.0786297 0
0.315145 0.0787671 0
0.329656 0.0788281 0
0.343984 0.0788739 0
0.358297 0.0782635 0
0.372457 0.0775311 0
0.386435 0.0767987 0
0.39968 0.075349 0
0.412589 0.0734569 0
0.42533 0.0715801 0
0.437629 0.069337 0
0.449012 0.066331 0
0.460243 0.0633402 0
0.471641 0.0603189 0
0.48249 0.0537118 0
0.493477 0.046952 0
0.504479 0.0401923 0
0.515389 0.0312352 0
0.526162 0.021149 0
0.537087 0.0109255 0
0.547539 0.00477607 0
0.557519 0.00495918 0
0.567758 0.00514229 0
0.57763 0.00526436 0
0.586389 0.00520333 0
0.595453 0.00514229 0
0.604334 0.00512703 0
0.612833 0.00521859 0
0.621515 0.00531014 0
0.629786 0.00540169 0
0.63801 0.00549325 0
0.646387 0.0055848 0
0.654002 0.0056611 0
0.661952 0.00575265 0
0.668894 0.00581369 0
0.676097 0.00590524 0
0.68278 0.00596628 0
0.689433 0.00604257 0
0.696269 0.00611887 0
0.70312 0.0061799 0
0.709545 0.0062562 0
0.717327 0.00633249 0
0.0567178 0.0476997 0.00674449
0.0597086 0.047715 0.00717174
0.0549477 0.0480964 0.00769055
0.0556954 0.0487221 0.00823987
0.0605325 0.0494392 0.00866712
0.0730602 0.0504921 0.00892653
0.0836957 0.0518502 0.00900282
0.0932174 0.0540169 0.00869764
0.102144 0.0562905 0.00848402
0.109483 0.0589456 0.00852979
0.116854 0.0615854 0.00856031
0.129503 0.0639506 0.00781262
0.141924 0.0663005 0.00708019
0.157153 0.0682078 0.00570687
0.173281 0.0699321 0.00411994
0.189105 0.0718395 0.00138857
0.204532 0.0742809 0
0.219654 0.0766766 0
0.234714 0.0792096 0
0.249439 0.0817578 0
0.264012 0.0842756 0
0.27892 0.085771 0
0.293584 0.087068 0
0.30808 0.0883345 0
0.32311 0.0889296 0
0.33785 0.0894484 0
0.352392 0.0899367 0
0.366934 0.0898299 0
0.381308 0.089601 0
0.395514 0.0893721 0
0.408957 0.0886091 0
0.422034 0.0875105 0
0.434958 0.0864271 0
0.447425 0.0851301 0
0.458946 0.0834211 0
0.470314 0.0817273 0
0.481834 0.0800031 0
0.492714 0.0758068 0
0.503746 0.071519 0
0.514763 0.0672313 0
0.525597 0.0607004 0
0.536233 0.0530098 0
0.547005 0.0452125 0
0.557305 0.0383307 0
0.567102 0.0327153 0
0.577142 0.0269474 0
0.586877 0.0220035 0
0.595605 0.0193942 0
0.604654 0.0166934 0
0.613519 0.014725 0
0.621988 0.0143282 0
0.630655 0.0139162 0
0.63888 0.013489 0
0.647074 0.0130007 0
0.655406 0.0124666 0
0.662974 0.0117952 0
0.670863 0.0110628 0
0.677699 0.0100862 0
0.68481 0.00895705 0
0.691341 0.00743114 0
0.697871 0.00680552 0
0.704616 0.00746166 0
0.711482 0.0100252 0
0.71809 0.0130465 0
0.726192 0.0155489 0
0.0531472 0.0545357 0.00750744
0.0568704 0.0545663 0.00793469
0.0512398 0.0549325 0.00843824
0.0522164 0.0556649 0.00907912
0.0579843 0.0565805 0.00961318
0.0722057 0.0575418 0.00993362
0.0840925 0.0589151 0.0100404
0.0942855 0.0611582 0.00972
0.103838 0.0635233 0.00943008
0.111727 0.0663157 0.00923171
0.119646 0.0691081 0.00901808
0.132616 0.0716411 0.00810254
0.145357 0.0741588 0.00720226
0.160922 0.0763256 0.00547799
0.177356 0.0783398 0.0034638
0.1935 0.0805371 0.000289921
0.209308 0.0832532 0
0.224796 0.0859388 0
0.240223 0.0886091 0
0.255314 0.0912184 0
0.270237 0.0937972 0
0.285374 0.0954757 0
0.300267 0.0969711 0
0.314992 0.0984207 0
0.33022 0.0993362 0
0.345129 0.100191 0
0.359884 0.101015 0
0.374594 0.101305 0
0.389166 0.101488 0
0.40354 0.101656 0
0.417151 0.101411 0
0.430396 0.100938 0
0.443488 0.100465 0
0.456092 0.0998398 0
0.467735 0.0989548 0
0.47921 0.0980545 0
0.490852 0.0971542 0
0.501823 0.0948196 0
0.512947 0.0924239 0
0.524056 0.0900282 0
0.534859 0.0866102 0
0.545419 0.0826581 0
0.55613 0.0786603 0
0.566323 0.072755 0
0.575967 0.0636606 0
0.585855 0.0543526 0
0.595468 0.0463417 0
0.604135 0.0420539 0
0.613108 0.0376135 0
0.621912 0.0342565 0
0.63032 0.0332189 0
0.638926 0.0321508 0
0.647089 0.0310521 0
0.655207 0.0298924 0
0.663462 0.0286259 0
0.670954 0.0271 0
0.678767 0.0254673 0
0.685512 0.0234073 0
0.692515 0.0210422 0
0.69894 0.0179294 0
0.705364 0.0166323 0
0.712047 0.0180056 0
0.718959 0.0233463 0
0.72578 0.0297856 0
0.734203 0.0354009 0
0.0429084 0.0628367 0.00802625
0.0477913 0.0629587 0.0083772
0.041413 0.0634012 0.00891127
0.0430762 0.0643168 0.00958267
0.0505837 0.0654917 0.0101625
0.0690471 0.0671244 0.0105135
0.0833295 0.0684215 0.010605
0.0943618 0.0706798 0.0102998
0.104723 0.0730907 0.00993362
0.113313 0.0759899 0.00926223
0.12192 0.0788739 0.00860609
0.135164 0.0814679 0.00761425
0.14818 0.084062 0.00666819
0.16405 0.0864118 0.00440986
0.180804 0.0886397 0.00167849
0.19733 0.0911116 0
0.213611 0.0941634 0
0.229587 0.0972 0
0.245426 0.100145 0
0.260884 0.102953 0
0.276173 0.10573 0
0.291554 0.107744 0
0.306661 0.109606 0
0.321584 0.111421 0
0.336965 0.112535 0
0.352026 0.113542 0
0.366903 0.114549 0
0.381781 0.115084 0
0.396506 0.115541 0
0.411048 0.115969 0
0.424811 0.116121 0
0.438209 0.116106 0
0.451423 0.116091 0
0.464164 0.115892 0
0.475914 0.115358 0
0.487511 0.114809 0
0.499245 0.11426 0
0.510323 0.112657 0
0.521523 0.111009 0
0.532738 0.109346 0
0.543633 0.106966 0
0.554284 0.104204 0
0.565072 0.101396 0
0.575326 0.0979629 0
0.585 0.0934157 0
0.594903 0.0887465 0
0.604501 0.084535 0
0.613062 0.0816358 0
0.621912 0.0786297 0
0.630594 0.0759594 0
0.63888 0.0740215 0
0.647334 0.0720378 0
0.655375 0.0700999 0
0.663355 0.0681468 0
0.671489 0.0660563 0
0.678859 0.063798 0
0.686564 0.0613718 0
0.693202 0.0584573 0
0.700099 0.0551461 0
0.706432 0.0509804 0
0.712795 0.0494087 0
0.719448 0.0515908 0
0.726452 0.0595254 0
0.733516 0.0696117 0
0.742336 0.0792554 0
0.0348669 0.0704662 0.00860609
0.0396429 0.070573 0.00885023
0.0337987 0.0712291 0.00946059
0.0360876 0.072343 0.010132
0.0447395 0.0736706 0.0106813
0.0657969 0.0755474 0.010956
0.0823377 0.0772717 0.0110018
0.094255 0.07953 0.0106203
0.10544 0.0819715 0.0101472
0.114611 0.0849165 0.00921645
0.123812 0.0878614 0.00831617
0.137392 0.090547 0.0071107
0.150713 0.0932479 0.00593576
0.166934 0.0957809 0.0030518
0.184024 0.0982681 0
0.2009 0.100984 0
0.217624 0.104295 0
0.233997 0.107591 0
0.250202 0.110719 0
0.26598 0.113695 0
0.28159 0.11664 0
0.2972 0.118944 0
0.312505 0.121096 0
0.327642 0.123217 0
0.343175 0.124514 0
0.358373 0.125719 0
0.373388 0.126894 0
0.388418 0.127672 0
0.403281 0.128374 0
0.417975 0.129046 0
0.431861 0.129519 0
0.445396 0.129854 0
0.458747 0.13019 0
0.471611 0.130327 0
0.483452 0.130068 0
0.49514 0.129809 0
0.506996 0.129534 0
0.518151 0.128481 0
0.529458 0.127398 0
0.540749 0.126314 0
0.551736 0.124712 0
0.562463 0.122835 0
0.573343 0.120928 0
0.583658 0.119127 0
0.593362 0.117449 0
0.603296 0.115724 0
0.612894 0.113954 0
0.621393 0.112093 0
0.630198 0.110155 0
0.638804 0.10811 0
0.646998 0.105867 0
0.655375 0.103563 0
0.66331 0.101366 0
0.671214 0.0991531 0
0.679255 0.096849 0
0.686564 0.0944991 0
0.694194 0.0919966 0
0.700771 0.0891127 0
0.707607 0.0858778 0
0.713878 0.0819257 0
0.720211 0.0806134 0
0.726864 0.0831922 0
0.733898 0.0917525 0
0.741115 0.102953 0
0.750149 0.114183 0
0.0290837 0.0786908 0.00946059
0.0313878 0.0787366 0.00953689
0.0285191 0.0796979 0.0102998
0.0314488 0.0810559 0.0108949
0.0404669 0.0825818 0.0112917
0.0625467 0.0845808 0.0113375
0.0803082 0.0866407 0.0111696
0.0937362 0.0891585 0.0105287
0.105974 0.0916304 0.00985733
0.115679 0.0945907 0.00903334
0.125399 0.0975814 0.00822461
0.139498 0.100404 0.00642405
0.153338 0.103258 0.00468452
0.170031 0.106081 0.000823987
0.187564 0.108904 0
0.204883 0.111925 0
0.222019 0.115389 0
0.238804 0.118837 0
0.255344 0.122087 0
0.271412 0.125154 0
0.287312 0.128191 0
0.303181 0.130739 0
0.318746 0.13315 0
0.334127 0.135531 0
0.349828 0.137072 0
0.365194 0.138521 0
0.380377 0.139925 0
0.39556 0.140978 0
0.41059 0.141924 0
0.425422 0.14287 0
0.43946 0.143572 0
0.453132 0.144152 0
0.466621 0.144717 0
0.479622 0.145083 0
0.491585 0.145022 0
0.50338 0.144976 0
0.515343 0.14493 0
0.526604 0.144228 0
0.538003 0.143496 0
0.549416 0.142779 0
0.560494 0.141619 0
0.571313 0.140246 0
0.582269 0.138857 0
0.592676 0.137469 0
0.602426 0.136049 0
0.612436 0.1346 0
0.622095 0.133196 0
0.630625 0.131899 0
0.639445 0.130541 0
0.648081 0.129168 0
0.65626 0.127733 0
0.664622 0.126268 0
0.672557 0.124834 0
0.68043 0.123384 0
0.688441 0.12195 0
0.69575 0.120851 0
0.703365 0.119707 0
0.709972 0.118639 0
0.716823 0.117479 0
0.72311 0.116243 0
0.729442 0.116396 0
0.736095 0.118608 0
0.743145 0.124086 0
0.750301 0.13164 0
0.759213 0.140017 0
0.0245365 0.0866865 0.0103914
0.0248875 0.0866865 0.0103151
0.0243534 0.0879377 0.0111849
0.0274357 0.0895247 0.0116732
0.0363317 0.0912337 0.011902
0.0586557 0.0933547 0.0116732
0.0771344 0.0955215 0.0112764
0.0925917 0.0983139 0.0104067
0.106508 0.100999 0.00956741
0.116732 0.104005 0.00872816
0.12697 0.107042 0.00788891
0.141588 0.109987 0.0055848
0.155962 0.112978 0.00335698
0.173098 0.11603 0
0.191073 0.119173 0
0.208804 0.122484 0
0.226368 0.126131 0
0.24358 0.129747 0
0.260456 0.133165 0
0.276814 0.136355 0
0.293004 0.139498 0
0.309102 0.14226 0
0.324895 0.144884 0
0.340505 0.147478 0
0.356374 0.149264 0
0.371908 0.150927 0
0.387259 0.15256 0
0.402594 0.153857 0
0.417777 0.155062 0
0.432776 0.156237 0
0.446952 0.157168 0
0.460761 0.157961 0
0.474388 0.15874 0
0.487511 0.159304 0
0.499596 0.159472 0
0.511498 0.159625 0
0.523583 0.159792 0
0.534951 0.159396 0
0.546456 0.158984 0
0.557961 0.158572 0
0.569146 0.157824 0
0.580056 0.156878 0
0.591104 0.155932 0
0.601572 0.15491 0
0.611399 0.153765 0
0.621469 0.15259 0
0.631174 0.151522 0
0.639735 0.150698 0
0.648585 0.149859 0
0.657237 0.149035 0
0.665415 0.148257 0
0.673762 0.147463 0
0.681666 0.14667 0
0.689509 0.14583 0
0.697505 0.145129 0
0.704799 0.145022 0
0.712413 0.14493 0
0.719036 0.145312 0
0.725902 0.145815 0
0.732219 0.146761 0
0.738582 0.148104 0
0.745251 0.150057 0
0.752285 0.153155 0
0.75935 0.15787 0
0.768124 0.164019 0
0.0240635 0.0944228 0.0116121
0.0242618 0.0944228 0.01149
0.0238956 0.0958877 0.012253
0.0253758 0.0976577 0.0125734
0.0322271 0.0995041 0.0125277
0.052018 0.101686 0.011902
0.0701915 0.10396 0.0112154
0.0896925 0.106935 0.0102541
0.106996 0.109926 0.00924697
0.117815 0.113054 0.00793469
0.128542 0.116182 0.00662242
0.143771 0.119234 0.00415045
0.158724 0.122362 0.00172427
0.176303 0.125643 0
0.194644 0.12903 0
0.212787 0.132616 0
0.230869 0.136477 0
0.248569 0.140307 0
0.265812 0.143908 0
0.28246 0.147311 0
0.298909 0.150652 0
0.315206 0.153521 0
0.331167 0.156252 0
0.346944 0.158953 0
0.362982 0.160906 0
0.378698 0.162753 0
0.394217 0.164553 0
0.40972 0.166064 0
0.425071 0.167483 0
0.440238 0.168872 0
0.454551 0.16997 0
0.468498 0.170916 0
0.482261 0.171832 0
0.495521 0.17258 0
0.507729 0.172961 0
0.519768 0.173342 0
0.531975 0.173709 0
0.54345 0.17351 0
0.555077 0.173281 0
0.56669 0.173053 0
0.577966 0.172503 0
0.588983 0.171771 0
0.600137 0.171023 0
0.610697 0.17026 0
0.6206 0.169421 0
0.630732 0.168582 0
0.640497 0.167773 0
0.649073 0.167132 0
0.657938 0.166461 0
0.66659 0.165805 0
0.674739 0.165179 0
0.683055 0.164553 0
0.690929 0.163943 0
0.698726 0.163317 0
0.706691 0.162799 0
0.71397 0.162799 0
0.721569 0.162829 0
0.728237 0.163424 0
0.735164 0.164202 0
0.741543 0.165454 0
0.747967 0.167071 0
0.754665 0.169223 0
0.761639 0.17232 0
0.768551 0.176913 0
0.777096 0.183062 0
0.0236057 0.102129 0.0128023
0.0236515 0.102113 0.0126192
0.0234379 0.103792 0.0133059
0.0233616 0.105745 0.0134279
0.0282444 0.107744 0.013138
0.045594 0.109987 0.0121157
0.0634775 0.112352 0.0111543
0.0869001 0.115496 0.0100862
0.107347 0.118639 0.00889601
0.118807 0.121965 0.00712596
0.130114 0.125216 0.00537118
0.145922 0.128405 0.00267033
0.16144 0.131655 4.57771e-05
0.179461 0.135134 0
0.198184 0.138796 0
0.216739 0.142626 0
0.235309 0.146746 0
0.253513 0.15079 0
0.271122 0.154604 0
0.288029 0.158206 0
0.304768 0.161746 0
0.321248 0.164736 0
0.337377 0.167559 0
0.353307 0.170352 0
0.369543 0.172488 0
0.385412 0.174502 0
0.401114 0.176486 0
0.416785 0.178195 0
0.432303 0.179828 0
0.447623 0.18143 0
0.462089 0.182712 0
0.476173 0.183795 0
0.490074 0.184863 0
0.503456 0.185763 0
0.515785 0.186374 0
0.527962 0.186969 0
0.540291 0.187564 0
0.551873 0.187533 0
0.563607 0.187488 0
0.575341 0.187442 0
0.586725 0.187091 0
0.597833 0.186557 0
0.609094 0.186023 0
0.619745 0.185504 0
0.629709 0.18497 0
0.639918 0.184436 0
0.649744 0.183902 0
0.65832 0.183429 0
0.667201 0.18294 0
0.675853 0.182452 0
0.68397 0.181994 0
0.692271 0.181521 0
0.700114 0.181094 0
0.707881 0.180667 0
0.715801 0.180346 0
0.723064 0.180438 0
0.730648 0.180575 0
0.737346 0.181415 0
0.744335 0.182422 0
0.75079 0.183993 0
0.757275 0.185885 0
0.764004 0.18822 0
0.770916 0.191318 0
0.777661 0.195804 0
0.785977 0.201938 0
0.0233921 0.111131 0.0130007
0.0234531 0.111162 0.0127718
0.0233005 0.112963 0.0131991
0.0232853 0.115084 0.0131228
0.0279393 0.11722 0.0126345
0.0443427 0.11957 0.0113222
0.0616617 0.122026 0.010132
0.0852369 0.125261 0.00886549
0.106004 0.128527 0.00743114
0.118502 0.132021 0.00527962
0.130861 0.1355 0.00311284
0.14725 0.138949 0
0.163317 0.142504 0
0.181964 0.146334 0
0.201358 0.150271 0
0.220493 0.15436 0
0.23949 0.158648 0
0.258106 0.162844 0
0.276051 0.166827 0
0.293263 0.170596 0
0.310277 0.174304 0
0.326955 0.177432 0
0.343267 0.180377 0
0.359396 0.183291 0
0.375799 0.18558 0
0.391852 0.187762 0
0.407706 0.189899 0
0.423545 0.19176 0
0.4392 0.193545 0
0.454673 0.1953 0
0.469276 0.196719 0
0.483482 0.197955 0
0.49752 0.199176 0
0.51104 0.200229 0
0.523476 0.200992 0
0.53576 0.201724 0
0.548196 0.202472 0
0.559899 0.202579 0
0.57174 0.20267 0
0.583566 0.202762 0
0.595056 0.202548 0
0.606256 0.202182 0
0.617624 0.201816 0
0.628351 0.201434 0
0.638392 0.201053 0
0.648676 0.200656 0
0.658564 0.200275 0
0.66717 0.199985 0
0.676097 0.199664 0
0.684749 0.199344 0
0.692866 0.199008 0
0.701137 0.198657 0
0.708949 0.198352 0
0.716686 0.198077 0
0.72459 0.197894 0
0.731838 0.198123 0
0.739437 0.198413 0
0.746166 0.199329 0
0.753185 0.200427 0
0.759686 0.202029 0
0.766201 0.204028 0
0.772946 0.206531 0
0.779812 0.209812 0
0.786404 0.214359 0
0.794507 0.220554 0
0.0231937 0.119997 0.0131991
0.02327 0.120043 0.0129091
0.0231937 0.121965 0.0131075
0.0232395 0.124254 0.0128328
0.0276646 0.126543 0.0121309
0.0431525 0.128985 0.0105592
0.0599527 0.131518 0.00914015
0.0836805 0.134859 0.00767529
0.104784 0.138231 0.00601205
0.118288 0.141894 0.00347906
0.13164 0.145525 0.000900282
0.148577 0.149172 0
0.165164 0.152987 0
0.184436 0.157168 0
0.204456 0.161471 0
0.224186 0.165835 0
0.243595 0.170321 0
0.262608 0.17467 0
0.280888 0.17882 0
0.29839 0.182757 0
0.315694 0.186648 0
0.33257 0.189899 0
0.349065 0.192966 0
0.365362 0.195987 0
0.381933 0.198444 0
0.398169 0.200778 0
0.414191 0.203082 0
0.430167 0.205097 0
0.445975 0.207019 0
0.461601 0.208927 0
0.476341 0.210483 0
0.490669 0.211872 0
0.504829 0.21323 0
0.518471 0.21445 0
0.531029 0.215351 0
0.54342 0.216236 0
0.555978 0.217121 0
0.567773 0.21735 0
0.579705 0.217578 0
0.591653 0.217792 0
0.603235 0.217731 0
0.614542 0.217533 0
0.625986 0.217319 0
0.63682 0.21709 0
0.646922 0.216846 0
0.657282 0.216587 0
0.667231 0.216373 0
0.675868 0.216236 0
0.68481 0.216098 0
0.693492 0.215946 0
0.701579 0.215717 0
0.70985 0.215488 0
0.717647 0.21532 0
0.725353 0.215183 0
0.733227 0.215137 0
0.740475 0.215503 0
0.748058 0.21593 0
0.754818 0.216922 0
0.761868 0.218097 0
0.768414 0.21976 0
0.774975 0.221866 0
0.78172 0.224537 0
0.788556 0.227985 0
0.794995 0.232593 0
0.802869 0.238834 0
0.0232395 0.129809 0.0125277
0.0233463 0.1299 0.0121767
0.02327 0.13193 0.0123445
0.0233463 0.134356 0.0119631
0.0269474 0.136736 0.0110628
0.0393835 0.139223 0.00914015
0.054612 0.141833 0.00727855
0.0791485 0.145296 0.00505074
0.101244 0.148821 0.00254826
0.116655 0.152743 0
0.131792 0.156649 0
0.149493 0.160693 0
0.166674 0.164721 0
0.186587 0.169299 0
0.207156 0.173907 0
0.227405 0.178515 0
0.247242 0.183185 0
0.266682 0.187716 0
0.285283 0.19202 0
0.303059 0.196124 0
0.320638 0.200153 0
0.337758 0.203555 0
0.354482 0.20679 0
0.371008 0.209979 0
0.387747 0.212589 0
0.40412 0.215061 0
0.420294 0.217502 0
0.436393 0.219623 0
0.452308 0.221653 0
0.468025 0.223651 0
0.482872 0.225345 0
0.497337 0.226856 0
0.511604 0.228336 0
0.525353 0.229679 0
0.538003 0.230701 0
0.550484 0.231693 0
0.563134 0.2327 0
0.575021 0.233036 0
0.58706 0.233371 0
0.599084 0.233692 0
0.610773 0.233768 0
0.622171 0.233707 0
0.633722 0.233646 0
0.644633 0.233555 0
0.654795 0.233433 0
0.665217 0.233295 0
0.675227 0.233188 0
0.683909 0.233158 0
0.692882 0.233143 0
0.701579 0.233082 0
0.709682 0.232975 0
0.717937 0.232853 0
0.725734 0.232776 0
0.733425 0.232731 0
0.741283 0.232776 0
