KODAK.cube
TITLE "Generated by Resolve"
LUT_3D_SIZE 5
0.0576638 0.0275883 0.00297551
0.186526 0.0473335 0
0.402701 0.0135958 0
0.573297 0.00480659 0
0.695964 0.00610361 0
0.024033 0.159503 0.00840772
0.256733 0.221973 0
0.529809 0.273152 0
0.714611 0.282628 0
0.831556 0.309194 0
0.0321355 0.321248 0
0.2869 0.429816 0
0.612024 0.50779 0
0.812558 0.532921 0
0.935088 0.56907 0
0.0316167 0.435264 0
0.303273 0.585611 0
0.672923 0.693141 0
0.8925 0.73727 0
0.973114 0.755627 0
0.016846 0.550835 0.168383
0.358221 0.689967 0.0204318
0.702266 0.787335 0
0.918883 0.843732 0
0.972274 0.847059 0
0.0336461 0.00183108 0.160861
0.208225 0.0110018 0.183612
0.445975 0 0.193225
0.620813 0 0.204822
0.728786 0 0.259174
0.019028 0.211444 0.256001
0.240711 0.265888 0.254108
0.553307 0.249607 0.200992
0.735225 0.23267 0.18529
0.827268 0.242145 0.227161
0.0172732 0.414267 0.323522
0.139071 0.503594 0.285863
0.617472 0.552697 0.231327
0.819059 0.544961 0.207645
0.91603 0.562737 0.25658
0.0162051 0.529931 0.383093
0.0772259 0.655787 0.350088
0.629511 0.743786 0.268345
0.872648 0.763989 0.239109
0.969848 0.779019 0.285649
0.0148165 0.629419 0.56495
0.138109 0.756344 0.539071
0.596704 0.834333 0.464652
0.869261 0.877653 0.456092
0.968826 0.885588 0.48777
0.0283665 0 0.339818
0.22266 0 0.378759
0.465171 0 0.400305
0.637812 0 0.420417
0.743801 0 0.475212
0.0180209 0.221073 0.476524
0.178164 0.25568 0.496559
0.550118 0.256489 0.496544
0.736248 0.23772 0.475181
0.827741 0.256703 0.520226
0.016022 0.457282 0.567727
0.0580606 0.548302 0.576745
0.585733 0.603601 0.554437
0.811231 0.54725 0.502251
0.910948 0.559853 0.538857
0.0149538 0.576379 0.629847
0.0140536 0.703349 0.636118
0.534264 0.790921 0.575753
0.855467 0.817746 0.559274
0.959258 0.815274 0.588327
0.0140078 0.653941 0.734142
0.056611 0.780774 0.737392
0.536583 0.863676 0.717861
0.828794 0.913558 0.69041
0.967453 0.923537 0.71046
0.0280003 0 0.451835
0.221378 0 0.500328
0.476234 0 0.535958
0.653483 0 0.561944
0.761685 0 0.60824
0.0176547 0.205371 0.596262
0.139422 0.265354 0.633677
0.527031 0.256229 0.659754
0.737819 0.243717 0.662028
0.832425 0.264775 0.690486
0.0153964 0.472831 0.700618
0.0187076 0.565286 0.72462
0.50753 0.574899 0.745296
0.808743 0.568109 0.742321
0.912367 0.580011 0.749905
0.014374 0.592309 0.749599
0.0133669 0.722423 0.77705
0.50396 0.814084 0.789166
0.834089 0.856916 0.773098
0.956664 0.829709 0.767788
0.0137179 0.659571 0.799863
0.0160983 0.787686 0.813703
0.517311 0.875303 0.834806
0.788357 0.92871 0.822126
0.966873 0.942641 0.824033
0.0277714 0 0.520241
0.214405 0 0.57351
0.479606 0 0.619196
0.666911 0 0.652903
0.777539 0 0.685542
0.0174258 0.206943 0.653056
0.105211 0.28426 0.700008
0.505623 0.269337 0.740246
0.735103 0.260563 0.761395
0.837949 0.282933 0.774945
0.0151522 0.478584 0.753307
0.0143587 0.575967 0.78912
0.477333 0.585718 0.820996
0.782773 0.582544 0.849638
0.915694 0.602014 0.84976
0.0141909 0.596613 0.790265
0.013138 0.726314 0.828168
0.474311 0.812284 0.857618
0.785367 0.853498 0.88954
0.956207 0.836484 0.859709
0.0136568 0.659373 0.817914
0.0126955 0.787182 0.835615
0.497307 0.875883 0.86772
0.773114 0.932204 0.875715
0.96669 0.949828 0.864378
